!!!!SEGMENT: pl-wtm--r-2040--002_smietanski-emil-wladyslaw--szum-wisly.krn
!!!cenid: 18xx:1983
!!!COM: Śmietański, Emil Władysław
!!!COM-rismid: pe50041781
!!!CDT: 1845-1886
!!!CNT: Polish
!!!OTL: Szum Wisły
!!!PDT: 1866
!!!AGN: Secular
!!!SMS-siglum: PL-Wtm
!!!SMS-shelfmark: R 2040
!!!SMS-shelfwork: 002 W
!!!SMS-variant:
!!!SMS-altvar:
!!!NIFC-rismid: 1001112995
!!!URL-scan: http://repozytorium.nifc.pl/skany/pl-wtm-nut--r2040
!!!ONB-nifc: UWAGA: utwory w zbiorze: 1. Graziella, 2. Szum Wisły, 3. Polonaise-Caprise
**kern	**fing	**kern	**fing	**dynam
*part2	*	*part1	*	*part1
*staff2	*	*staff1	*	*
*Iempty	*	*Ipiano	*	*
*	*	*I"[Pianoforte]	*	*
*clefF4	*	*clefG2	*	*
*k[f#c#g#]	*	*k[f#c#g#]	*	*
*f#:	*	*f#:	*	*
*M2/4	*	*M2/4	*	*
=1	=1	=1	=1	=1
*clefG2	*	*	*	*
!	!	!LO:TX:t=P:problem:all\left,right or middle:global	!	!
!	!	!LO:TX:a:t=Moderato e tranquillo.	!	!
32ff#\LLL	.	32ccc#LLL 32aa\	.	pp
32ee#X\	.	32ddd 32gg#\	.	.
32ff#\	.	32ccc# 32aa\	.	.
32ee#\JJJ	.	32dddJJJ 32gg#\	.	.
*rep	*	*rep	*	*
32ff#\LLL	.	32ccc#LLL 32aa\	.	.
32ee#\	.	32ddd 32gg#\	.	.
32ff#\	.	32ccc# 32aa\	.	.
32ee#\JJJ	.	32dddJJJ 32gg#\	.	.
32ff#\LLL	.	32ccc#LLL 32aa\	.	.
32ee#\	.	32ddd 32gg#\	.	.
32ff#\	.	32ccc# 32aa\	.	.
32ee#\JJJ	.	32dddJJJ 32gg#\	.	.
32ff#\LLL	.	32ccc#LLL 32aa\	.	.
32ee#\	.	32ddd 32gg#\	.	.
32ff#\	.	32ccc# 32aa\	.	.
32ee#\JJJ	.	32dddJJJ 32gg#\	.	.
*Xrep	*	*Xrep	*	*
=2	=2	=2	=2	=2
32ee\LLL	.	32ccc#LLL 32aa\	.	.
32ffn\	.	32ddd 32gg#\	.	.
32ee\	.	32ccc# 32aa\	.	.
32ff\JJJ	.	32dddJJJ 32gg#\	.	.
32ee\LLL	.	32ccc#LLL 32aa\	.	.
32ff\	.	32ddd 32gg#\	.	.
32ee\	.	32ccc# 32aa\	.	.
32ff\JJJ	.	32dddJJJ 32gg#\	.	.
*rep	*	*	*	*
32ee\LLL	.	32ccc#LLL 32aa\	.	.
32ff\	.	32gg#\	.	.
32ee\	.	32ccc# 32aa\	.	.
32ff\JJJ	.	32gg#\JJJ	.	.
32ee\LLL	.	32ccc#LLL 32aa\	.	.
32ff\	.	32gg#\	.	.
32ee\	.	32ccc# 32aa\	.	.
32ff\JJJ	.	32gg#\JJJ	.	.
*Xrep	*	*	*	*
=3	=3	=3	=3	=3
32ee\LLL	.	32bbLLL 32ggn\	.	.
32dd#X\	.	32ccc# 32ff#\	.	.
32ee\	.	32bb 32gg\	.	.
32dd#\JJJ	.	32ccc#JJJ 32ff#\	.	.
32ee\LLL	.	32bbLLL 32gg\	.	.
32dd#\	.	32ccc# 32ff#\	.	.
32ee\	.	32bb 32gg\	.	.
32dd#\JJJ	.	32ccc#JJJ 32ff#\	.	.
*rep	*	*rep	*	*
32ee\LLL	.	32bbLLL 32gg\	.	.
32dd#\	.	32ccc# 32ff#\	.	.
32ee\	.	32bb 32gg\	.	.
32dd#\JJJ	.	32ccc#JJJ 32ff#\	.	.
32ee\LLL	.	32bbLLL 32gg\	.	.
32dd#\	.	32ccc# 32ff#\	.	.
32ee\	.	32bb 32gg\	.	.
32dd#\JJJ	.	32ccc#JJJ 32ff#\	.	.
*Xrep	*	*Xrep	*	*
=4	=4	=4	=4	=4
32dd\LLL	.	32bbLLL 32ggn\	.	.
32ee-X\	.	32ccc# 32ff#\	.	.
32dd\	.	32bb 32gg\	.	.
32ee-\JJJ	.	32ccc#JJJ 32ff#\	.	.
32dd\LLL	.	32bbLLL 32gg\	.	.
32ee-\	.	32ccc# 32ff#\	.	.
32dd\	.	32bb 32gg\	.	.
32ee-\JJJ	.	32ccc#JJJ 32ff#\	.	.
*rep	*	*	*	*
32dd\LLL	.	32bbLLL 32gg\	.	.
32ee-\	.	32ff#\	.	.
32dd\	.	32bb 32gg\	.	.
32ee-\JJJ	.	32ff#\JJJ	.	.
32dd\LLL	.	32bbLLL 32gg\	.	.
32ee-\	.	32ff#\	.	.
32dd\	.	32bb 32gg\	.	.
32ee-\JJJ	.	32ff#\JJJ	.	.
*Xrep	*	*	*	*
!!LO:LB:g=original
=5	=5	=5	=5	=5
32dd\LLL	.	32aaLLL 32ffn\	.	.
32cc#\	.	32bb 32ee\	.	.
32dd\	.	32aa 32ff\	.	.
32cc#\JJJ	.	32bbJJJ 32ee\	.	.
32dd\LLL	.	32aaLLL 32ff\	.	.
32cc#\	.	32bb 32ee\	.	.
32dd\	.	32aa 32ff\	.	.
32cc#\JJJ	.	32bbJJJ 32ee\	.	.
32ccn\LLL	.	32aaLLL 32ff\	.	.
32dd-X\	.	32bb 32ee\	.	.
32cc\	.	32aa 32ff\	.	.
32dd-\JJJ	.	32bbJJJ 32ee\	.	.
32cc\LLL	.	32aaLLL 32ff\	.	.
32dd-\	.	32ee\	.	.
32cc\	.	32aa 32ff\	.	.
32dd-\JJJ	.	32ee\JJJ	.	.
=6	=6	=6	=6	=6
32ccn\LLL	.	32ggnLLL 32ee-X\	.	.
32b\	.	32aa 32dd\	.	.
32cc\	.	32gg 32ee-\	.	.
32b\JJJ	.	32aaJJJ 32dd\	.	.
32cc\LLL	.	32ggLLL 32ee-\	.	.
32b\	.	32aa 32dd\	.	.
32cc\	.	32gg 32ee-\	.	.
32b\JJJ	.	32aaJJJ 32dd\	.	.
32b-X\LLL	.	32ggLLL 32ee-\	.	.
32cc-\	.	32aa 32dd\	.	.
32b-\	.	32gg 32ee-\	.	.
32cc-\JJJ	.	32aaJJJ 32dd\	.	.
32b-\LLL	.	32ggLLL 32ee-\	.	.
32cc-\	.	32dd\	.	.
32b-\	.	32gg 32ee-\	.	.
32cc-\JJJ	.	32dd\JJJ	.	.
=7	=7	=7	=7	=7
*^	*	*	*	*
*	*2\right	*	*	*	*
!l	!	!	!	!	!
*	*	*	*ped	*	*
32b/LLL	2c#\	.	32ff#LLL 32dd\	.	.
32a#X/	.	.	32gg#X 32cc#\	.	.
32b/	.	.	32ff# 32dd\	.	.
32a#/JJJ	.	.	32gg#JJJ 32cc#\	.	.
32b/LLL	.	.	32ff#LLL 32dd\	.	.
32a#/	.	.	32gg# 32cc#\	.	.
32b/	.	.	32ff# 32dd\	.	.
32a#/JJJ	.	.	32gg#JJJ 32cc#\	.	.
*	*	*	*Xped	*	*
32b/LLL	.	.	32ff#LLL 32dd\	.	.
32a#/	.	.	32cc#\	.	.
32b/	.	.	32ee#X 32dd\	.	.
32a#/JJJ	.	.	32cc#\JJJ	.	.
32b/LLL	.	.	32ee#LLL 32dd\	.	.
32a#/	.	.	32cc#\	.	.
32b/	.	.	32ee# 32dd\	.	.
32a#/JJJ	.	.	32cc#\JJJ	.	.
=8	=8	=8	=8	=8	=8
*rep	*rep	*	*rep	*	*
*	*	*	*ped	*	*
32b/LLL	2c#\	.	32ff#LLL 32dd\	.	.
32a#X/	.	.	32gg#X 32cc#\	.	.
32b/	.	.	32ff# 32dd\	.	.
32a#/JJJ	.	.	32gg#JJJ 32cc#\	.	.
32b/LLL	.	.	32ff#LLL 32dd\	.	.
32a#/	.	.	32gg# 32cc#\	.	.
32b/	.	.	32ff# 32dd\	.	.
32a#/JJJ	.	.	32gg#JJJ 32cc#\	.	.
*	*	*	*Xped	*	*
32b/LLL	.	.	32ff#LLL 32dd\	.	.
32a#/	.	.	32cc#\	.	.
32b/	.	.	32ee#X 32dd\	.	.
32a#/JJJ	.	.	32cc#\JJJ	.	.
32b/LLL	.	.	32ee#LLL 32dd\	.	.
32a#/	.	.	32cc#\	.	.
32b/	.	.	32ee# 32dd\	.	.
32a#/JJJ	.	.	32cc#\JJJ	.	.
*Xrep	*Xrep	*	*Xrep	*	*
*v	*v	*	*	*	*
!!LO:LB:g=original
=9	=9	=9	=9	=9
32b/LLL	.	32ee#XLLL 32dd\	.	.
32b#X/	.	32ff# 32dd#X\	.	.
32cc#/	.	32ggn 32een\	.	.
32dd/JJJ	.	32gg#XJJJ 32ee#X\	.	.
32dd#X/LLL	.	32aaLLL 32ff#\	.	.
32ddn/	.	32gg# 32ee#\	.	.
32cc#/	.	32ggn 32een\	.	.
32ccn/JJJ	.	32ff#JJJ 32dd#\	.	.
*rep	*	*rep	*	*
32bn/LLL	.	32ee#XLLL 32ddn\	.	.
32b#X/	.	32ff# 32dd#X\	.	.
32cc#X/	.	32gg 32een\	.	.
32dd/JJJ	.	32gg#XJJJ 32ee#X\	.	.
32dd#X/LLL	.	32aaLLL 32ff#\	.	.
32ddn/	.	32gg# 32ee#\	.	.
32cc#/	.	32ggn 32een\	.	.
32ccn/JJJ	.	32ff#JJJ 32dd#\	.	.
*Xrep	*	*Xrep	*	*
=10	=10	=10	=10	=10
32b\LLL	.	32ee#XLLL 32dd\	.	.
32a#X\	.	32cc#\	.	.
32b\	.	32dd\	.	.
32cc#\JJJ	.	32ee#\JJJ	.	.
32dd\LLL	.	32gg#LLL 32ff#\	.	.
32cc#\	.	32ee#\	.	.
32dd\	.	32ff#\	.	.
32ee#X\JJJ	.	32gg#\JJJ	.	.
32ff#\LLL	.	32dddLLL 32aa\	.	.
32ee#\	.	32gg#\	.	.
32ff#\	.	32aa\	.	.
32gg#\JJJ	.	32bb\JJJ	.	.
32aa\LLL	.	32eee#XLLL 32ccc#\	.	.
32gg#\	.	32bb\	.	.
32aa\	.	32ccc#\	.	.
32bb\JJJ	.	32ddd\JJJ	.	.
=11	=11	=11	=11	=11
32aaLLL 32ff#\	2 1	32fff#LLL 32ccc#\	.	.
32ee#X\	3	32ddd 32gg#\	.	.
32aa 32ff#\	.	32fff# 32ccc#\	.	.
32ee#\JJJ	.	32dddJJJ 32gg#\	.	.
32aaLLL 32ff#\	.	32fff#LLL 32ccc#\	.	.
32ee#\	.	32ddd 32gg#\	.	.
32aa 32ff#\	.	32fff# 32ccc#\	.	.
32ee#\JJJ	.	32dddJJJ 32gg#\	.	.
*rep	*	*rep	*	*
32aaLLL 32ff#\	.	32fff#LLL 32ccc#\	.	.
32ee#\	.	32ddd 32gg#\	.	.
32aa 32ff#\	.	32fff# 32ccc#\	.	.
32ee#\JJJ	.	32dddJJJ 32gg#\	.	.
32aaLLL 32ff#\	.	32fff#LLL 32ccc#\	.	.
32ee#\	.	32ddd 32gg#\	.	.
32aa 32ff#\	.	32fff# 32ccc#\	.	.
32ee#\JJJ	.	32dddJJJ 32gg#\	.	.
*Xrep	*	*Xrep	*	*
=12	=12	=12	=12	=12
32aaLLL 32een\	4 1	32ccc#\LLL	.	.
32ffn\	2	32ddd 32gg#\	.	.
32aa 32ee\	.	32ccc#\	.	.
32ff\JJJ	.	32dddJJJ 32gg#\	.	.
32aaLLL 32ee\	.	32ccc#\LLL	.	.
32ff\	.	32ddd 32gg#\	.	.
32aa 32ee\	.	32ccc#\	.	.
32ff\JJJ	.	32dddJJJ 32gg#\	.	.
*rep	*	*	*	*
32aaLLL 32ee\	.	32eeeLLL 32ccc#\	.	.
32ff\	.	32gg#\	.	.
32aa 32ee\	.	32eee 32ccc#\	.	.
32ff\JJJ	.	32gg#\JJJ	.	.
32aaLLL 32ee\	.	32eeeLLL 32ccc#\	.	.
32ff\	.	32gg#\	.	.
32aa 32ee\	.	32eee 32ccc#\	.	.
32ff\JJJ	.	32gg#\JJJ	.	.
*Xrep	*	*	*	*
!!LO:LB:g=original
=13	=13	=13	=13	=13
32ggnLLL 32ee\	2 1	32eeeLLL 32bb\	.	.
32dd#X\	3	32ccc# 32ff#\	.	.
32gg 32ee\	.	32eee 32bb\	.	.
32dd#\JJJ	.	32ccc#JJJ 32ff#\	.	.
32ggLLL 32ee\	.	32eeeLLL 32bb\	.	.
32dd#\	.	32ccc# 32ff#\	.	.
32gg 32ee\	.	32eee 32bb\	.	.
32dd#\JJJ	.	32ccc#JJJ 32ff#\	.	.
*rep	*	*rep	*	*
32ggLLL 32ee\	.	32eeeLLL 32bb\	.	.
32dd#\	.	32ccc# 32ff#\	.	.
32gg 32ee\	.	32eee 32bb\	.	.
32dd#\JJJ	.	32ccc#JJJ 32ff#\	.	.
32ggLLL 32ee\	.	32eeeLLL 32bb\	.	.
32dd#\	.	32ccc# 32ff#\	.	.
32gg 32ee\	.	32eee 32bb\	.	.
32dd#\JJJ	.	32ccc#JJJ 32ff#\	.	.
*Xrep	*	*Xrep	*	*
=14	=14	=14	=14	=14
32ggnLLL 32dd\	4 1	32bb\LLL	.	.
32ee-X\	2	32ccc# 32ff#\	.	.
32gg 32dd\	.	32bb\	.	.
32ee-\JJJ	.	32ccc#JJJ 32ff#\	.	.
32ggLLL 32dd\	.	32bb\LLL	.	.
32ee-\	.	32ccc# 32ff#\	.	.
32gg 32dd\	.	32bb\	.	.
32ee-\JJJ	.	32ccc#JJJ 32ff#\	.	.
*rep	*	*	*	*
32ggLLL 32dd\	.	32dddLLL 32bb\	.	.
32ee-\	.	32ff#\	.	.
32gg 32dd\	.	32ddd 32bb\	.	.
32ee-\JJJ	.	32ff#\JJJ	.	.
32ggLLL 32dd\	.	32dddLLL 32bb\	.	.
32ee-\	.	32ff#\	.	.
32gg 32dd\	.	32ddd 32bb\	.	.
32ee-\JJJ	.	32ff#\JJJ	.	.
*Xrep	*	*	*	*
=15	=15	=15	=15	=15
*^	*	*	*	*
32ffnLLL 32dd\	4ryy	2 1	32dddLLL 32aa\	.	.
32cc#\	.	.	32bb 32ee\	.	.
32ff 32dd\	.	.	32ddd 32aa\	.	.
32cc#\JJJ	.	.	32bbJJJ 32ee\	.	.
32ffLLL 32dd\	.	.	32dddLLL 32aa\	.	.
32cc#\	.	.	32bb 32ee\	.	.
32ff 32dd\	.	.	32ddd 32aa\	.	.
32cc#\JJJ	.	.	32bbJJJ 32ee\	.	.
*	*below	*	*ped	*	*
32ffLLL 32dd/	4b\	4 2 1	32dddLLL 32aa\	.	.
32cc#/	.	.	32ee\	.	.
32ff 32dd/	.	.	32ddd 32gg#\	.	.
32cc#/JJJ	.	.	32ee\JJJ	.	.
32ffLLL 32dd/	.	.	32dddLLL 32gg#\	.	.
32cc#/	.	.	32ee\	.	.
32ff 32dd/	.	.	32ddd 32gg#\	.	.
32cc#/JJJ	.	.	32ee\JJJ	.	.
=16	=16	=16	=16	=16	=16
32ddLLL 32b/	4ryy	2 1	32bbLLL 32ff#\	.	.
32a#X/	.	3	32gg# 32cc#\	.	.
32dd 32b/	.	.	32bb 32ff#\	.	.
32a#/JJJ	.	.	32gg#JJJ 32cc#\	.	.
32ddLLL 32b/	.	.	32bbLLL 32ff#\	.	.
32a#/	.	.	32gg# 32cc#\	.	.
32dd 32b/	.	.	32bb 32ff#\	.	.
32a#/JJJ	.	.	32gg#JJJ 32cc#\	.	.
*	*	*	*ped	*	*
32ddLLL 32b/	4g#\	4 2 1	32bbLLL 32ff#\	.	.
32a#/	.	.	32cc#\	.	.
32dd 32b/	.	.	32bb 32ee#X\	.	.
32a#/JJJ	.	.	32cc#\JJJ	.	.
32ddLLL 32b/	.	.	32bbLLL 32ee#\	.	.
32a#/	.	.	32cc#\	.	.
32dd 32b/	.	.	32bb 32ee#\	.	.
32a#/JJJ	.	.	32cc#\JJJ	.	.
*v	*v	*	*	*	*
!!LO:LB:g=original
=17	=17	=17	=17	=17
32b/LLL	.	32gg#LLL 32cc#\	.	.
32f#/	.	32dd\	.	.
32b/	.	32gg# 32cc#\	.	.
32f#/JJJ	.	32dd\JJJ	.	.
32e#XLLL 32c#/	.	32cc#LLL 32b\	.	.
32f#/	.	32dd\	.	.
32e#/	.	32cc# 32b\	.	.
32f#/JJJ	.	32dd\JJJ	.	.
*rep	*	*rep	*	*
32b/LLL	.	32gg#LLL 32cc#\	.	.
32f#/	.	32dd\	.	.
32b/	.	32gg# 32cc#\	.	.
32f#/JJJ	.	32dd\JJJ	.	.
32e#LLL 32c#/	.	32cc#LLL 32b\	.	.
32f#/	.	32dd\	.	.
32e#/	.	32cc# 32b\	.	.
32f#/JJJ	.	32dd\JJJ	.	.
*Xrep	*	*Xrep	*	*
=18	=18	=18	=18	=18
32e#X/LLL	.	32cc#LLL 32b\	.	.
32f#/	.	32dd\	.	.
32e#/	.	32cc# 32b\	.	.
32f#/JJJ	.	32dd\JJJ	.	.
32f#/LLL	.	32ddLLL 32ccn\	.	.
32gn/	.	32ee-X\	.	.
32f#/	.	32dd 32cc\	.	.
32g/JJJ	.	32ee-\JJJ	.	.
32f##X/LLL	.	32dd#XLLL 32cc#X\	.	.
32g#X/	.	32een\	.	.
32f##/	.	32dd# 32cc#\	.	.
32g#/JJJ	.	32ee\JJJ	.	.
32g#/LLL	.	32eeLLL 32ddn\	.	.
32a/	.	32ffn\	.	.
32g#/	.	32ee 32dd\	.	.
32a/JJJ	.	32ff\JJJ	.	.
=19	=19	=19	=19	=19
32dd/LLL	.	32bbLLL 32ee\	.	.
32a/	.	32ffn\	.	.
32dd/	.	32bb 32ee\	.	.
32a/JJJ	.	32ff\JJJ	.	.
32g#LLL 32e/	.	32eeLLL 32dd\	.	.
32a/	.	32ff\	.	.
32g#/	.	32ee 32dd\	.	.
32a/JJJ	.	32ff\JJJ	.	.
32dd/LLL	.	32bbLLL 32ee\	.	.
32a/	.	32ff\	.	.
32dd/	.	32bb 32ee\	.	.
32a/JJJ	.	32ff\JJJ	.	.
32g#LLL 32e/	.	32eeLLL 32dd\	.	.
32a/	.	32ff\	.	.
32g#/	.	32ee 32dd\	.	.
32a/JJJ	.	32ff\JJJ	.	.
=20	=20	=20	=20	=20
32g#/LLL	.	32eeLLL 32dd\	.	.
32a/	.	32ff#\	.	.
32g#/	.	32ee 32dd\	.	.
32a/JJJ	.	32ff#\JJJ	.	.
32a/LLL	.	32ffnLLL 32ee-X\	.	.
32b-X/	.	32gg-\	.	.
32a/	.	32ff 32ee-\	.	.
32b-/JJJ	.	32gg-\JJJ	.	.
32a#X/LLL	.	32ff#XLLL 32een\	.	.
32bn/	.	32ggn\	.	.
32a#/	.	32ff# 32ee\	.	.
32b/JJJ	.	32gg\JJJ	.	.
32b/LLL	.	32ggLLL 32ffn\	.	.
32ccn/	.	32aa-X\	.	.
32b/	.	32gg 32ff\	.	.
32cc/JJJ	.	32aa-\JJJ	.	.
!!LO:LB:g=original
=21	=21	=21	=21	=21
32ffn\LLL	.	32dddLLL 32ggn\	.	.
32ccn\	.	32aa-X\	.	.
32ff\	.	32ddd 32gg\	.	.
32cc\JJJ	.	32aa-\JJJ	.	.
32bLLL 32gn\	.	32ggLLL 32ffn\	.	.
32cc\	.	32aa-\	.	.
32b 32g\	.	32gg 32ff\	.	.
32cc\JJJ	.	32aa-\JJJ	.	.
32b\LLL	.	32ggLLL 32ff\	.	.
32cc\	.	32aa-\	.	.
32b\	.	32gg 32ff\	.	.
32cc\JJJ	.	32aa-\JJJ	.	.
32b#X\LLL	.	32gg#XLLL 32ff#X\	.	.
32cc#X\	.	32aa-\	.	.
32b#\	.	32gg# 32ff#\	.	.
32cc#\JJJ	.	32aa-\JJJ	.	.
=22	=22	=22	=22	=22
32ff#\LLL	.	32ddd#XLLL 32gg#\	.	.
32cc#\	.	32aa\	.	.
32ff#\	.	32ddd# 32gg#\	.	.
32cc#\JJJ	.	32aa\JJJ	.	.
32b#XLLL 32g#\	.	32gg#LLL 32ff#\	.	.
32cc#\	.	32aa\	.	.
32b# 32g#\	.	32gg# 32ff#\	.	.
32cc#\JJJ	.	32aa\JJJ	.	.
32b#\LLL	.	32gg#LLL 32ff#\	.	.
32cc#\	.	32aa\	.	.
32b#\	.	32gg# 32ff#\	.	.
32cc#\JJJ	.	32aa\JJJ	.	.
32cc#\LLL	.	32aaLLL 32ggn\	.	.
32dd\	.	32bb-X\	.	.
32cc#\	.	32aa 32gg\	.	.
32dd\JJJ	.	32bb-\JJJ	.	.
=23	=23	=23	=23	=23
32cc#LLL 32a\	.	32aaLLL 32ggn\	.	.
32dd\	.	32bb-X\	.	.
32cc#\	.	32aa 32gg\	.	.
32dd\JJJ	.	32bb-\JJJ	.	.
32dd\LLL	.	32bb-LLL 32aa-X\	.	.
32ee-X\	.	32ccc-\	.	.
32dd\	.	32bb- 32aa-\	.	.
32ee-\JJJ	.	32ccc-\JJJ	.	.
32dd#X\LLL	.	32bbnLLL 32aan\	.	.
32een\	.	32cccn\	.	.
32dd#\	.	32bb 32aa\	.	.
32ee\JJJ	.	32ccc\JJJ	.	.
32ee\LLL	.	32cccnLLL 32bb-X\	.	.
32ffn\	.	32ddd-X\	.	.
32ee\	.	32ccc 32bb-\	.	.
32ff\JJJ	.	32ddd-\JJJ	.	.
=24	=24	=24	=24	=24
32ee#X\LLL	.	32ccc#XLLL 32bbn\	.	.
32ff#\	.	32ddd\	.	.
32ee#\	.	32ccc# 32bb\	.	.
32ff#\JJJ	.	32ddd\JJJ	.	.
32ee#\LLL	.	32ccc#LLL 32bb\	.	.
32ff#\	.	32ddd\	.	.
32ee#\	.	32ccc# 32bb\	.	.
!!LO:LB:g=original
32ff#\JJJ	.	32ddd\JJJ	.	.
16ee#X 16cc#/	.	32ccc#LLL 32bb\	.	.
.	.	32ddd 32gg#\	.	.
!	!	!LO:TX:b:t=marcato il thema	!	!
16r	.	32ccc# 32bb\	.	.
.	.	32dddJJJ 32gg#\	.	.
!LO:TX:t=P:problem:cross-measure beam	!	!	!	!
(8c#^^</	.	32ccc#LLL 32bb\	.	.
.	.	32ddd 32gg#\	.	.
.	.	32ccc# 32bb\	.	.
.	.	32dddJJJ 32gg#\	.	.
=25	=25	=25	=25	=25
*ped	*	*	*	*
16ff# 16f#/)	.	32ccc#LLL 32aa\	.	.
.	.	32ddd 32gg#\	.	.
16r	.	32ccc# 32aa\	.	.
.	.	32dddJJJ 32gg#\	.	.
(8c#^^</L	.	32ccc#LLL 32aa\	.	.
.	.	32ddd 32gg#\	.	.
.	.	32ccc# 32aa\	.	.
.	.	32dddJJJ 32gg#\	.	.
*	*	*rep	*	*
16ff#Jk 16f#/)	.	32ccc#LLL 32aa\	.	.
.	.	32ddd 32gg#\	.	.
16r	.	32ccc# 32aa\	.	.
.	.	32dddJJJ 32gg#\	.	.
*Xped	*	*	*	*
!LO:TX:t=P:problem:cross-measure beam	!	!	!	!
(8c#^^</L	.	32ccc#LLL 32aa\	.	.
.	.	32ddd 32gg#\	.	.
.	.	32ccc# 32aa\	.	.
.	.	32dddJJJ 32gg#\	.	.
*	*	*Xrep	*	*
=26	=26	=26	=26	=26
*ped	*	*	*	*
16ff#Jk 16f#/)	.	32ccc#LLL 32aa\	.	.
.	.	32fff# 32gg#\	.	.
16r	.	32ccc# 32aa\	.	.
.	.	32fff#JJJ 32gg#\	.	.
16F#/LL	.	32ccc#LLL 32aa\	.	.
.	.	32fff# 32gg#\	.	.
16G#/JJ	.	32ccc# 32aa\	.	.
.	.	32fff#JJJ 32gg#\	.	.
*Xped	*	*rep	*	*
16A/LL	.	32ccc#LLL 32aa\	.	.
.	.	32fff# 32gg#\	.	.
16B/	.	32ccc# 32aa\	.	.
.	.	32fff#JJJ 32gg#\	.	.
*ped	*	*	*	*
16c#/	.	32ccc#LLL 32aa\	.	.
.	.	32fff# 32gg#\	.	.
16d/JJ	.	32ccc# 32aa\	.	.
.	.	32fff#JJJ 32gg#\	.	.
*	*	*Xrep	*	*
=27	=27	=27	=27	=27
(8c#^^</L	.	32ccc#LLL 32aa\	.	.
.	.	32ddd 32gg#\	.	.
.	.	32ccc# 32aa\	.	.
.	.	32dddJJJ 32gg#\	.	.
16ff#Jk 16f#/)	.	32ccc#LLL 32aa\	.	.
.	.	32ddd 32gg#\	.	.
16r	.	32ccc# 32aa\	.	.
.	.	32dddJJJ 32gg#\	.	.
*	*	*rep	*	*
(8c#^^</L	.	32ccc#LLL 32aa\	.	.
.	.	32ddd 32gg#\	.	.
.	.	32ccc# 32aa\	.	.
.	.	32dddJJJ 32gg#\	.	.
16ff#Jk 16f#/)	.	32ccc#LLL 32aa\	.	.
.	.	32ddd 32gg#\	.	.
16r	.	32ccc# 32aa\	.	.
.	.	32dddJJJ 32gg#\	.	.
*	*	*Xrep	*	*
=28	=28	=28	=28	=28
8c#/	.	32ccc#LLL 32aa\	.	.
.	.	32fff# 32gg#\	.	.
.	.	32ccc# 32aa\	.	.
.	.	32fff#JJJ 32gg#\	.	.
8r	.	32ccc#LLL 32aa\	.	.
.	.	32fff# 32gg#\	.	.
.	.	32ccc# 32aa\	.	.
.	.	32fff#JJJ 32gg#\	.	.
4dd#X 4d#X\	.	32cccnLLL 32aa\	.	.
.	.	32fff# 32gg#\	.	.
.	.	32ccc 32aa\	.	.
.	.	32fff#JJJ 32gg#\	.	.
.	.	32cccLLL 32aa\	.	.
.	.	32fff# 32gg#\	.	.
.	.	32ccc 32aa\	.	.
.	.	32fff#JJJ 32gg#\	.	.
!!LO:PB:g=original
=29	=29	=29	=29	=29
16ee 16e/	.	32bbLLL 32ggn\	.	.
.	.	32ccc# 32ff#\	.	.
16r	.	32bb 32gg\	.	.
.	.	32ccc#JJJ 32ff#\	.	.
(8B/L	.	32bbLLL 32gg\	.	.
.	.	32ccc# 32ff#\	.	.
.	.	32bb 32gg\	.	.
.	.	32ccc#JJJ 32ff#\	.	.
*	*	*rep	*	*
16eeJk 16e/)	.	32bbLLL 32gg\	.	.
.	.	32ccc# 32ff#\	.	.
16r	.	32bb 32gg\	.	.
.	.	32ccc#JJJ 32ff#\	.	.
!LO:TX:t=P:problem:cross-measure beam	!	!	!	!
(8B/L	.	32bbLLL 32gg\	.	.
.	.	32ccc# 32ff#\	.	.
.	.	32bb 32gg\	.	.
.	.	32ccc#JJJ 32ff#\	.	.
*	*	*Xrep	*	*
=30	=30	=30	=30	=30
16eeJk 16e/)	.	32bbLLL 32ggn\	.	.
.	.	32eee 32ff#\	.	.
16r	.	32bb 32gg\	.	.
.	.	32eeeJJJ 32ff#\	.	.
*clefF4	*	*	*	*
16E\LL	.	32bbLLL 32gg\	.	.
.	.	32eee 32ff#\	.	.
16F#\JJ	.	32bb 32gg\	.	.
.	.	32eeeJJJ 32ff#\	.	.
*	*	*rep	*	*
16Gn\LL	.	32bbLLL 32gg\	.	.
.	.	32eee 32ff#\	.	.
16A\	.	32bb 32gg\	.	.
.	.	32eeeJJJ 32ff#\	.	.
16B\	.	32bbLLL 32gg\	.	.
.	.	32eee 32ff#\	.	.
16c#\JJ	.	32bb 32gg\	.	.
.	.	32eeeJJJ 32ff#\	.	.
*clefG2	*	*Xrep	*	*
=31	=31	=31	=31	=31
(8B/L	.	32bbLLL 32ggn\	.	.
.	.	32ccc# 32ff#\	.	.
.	.	32bb 32gg\	.	.
.	.	32ccc#JJJ 32ff#\	.	.
16eeJk 16e/)	.	32bbLLL 32gg\	.	.
.	.	32ccc# 32ff#\	.	.
16r	.	32bb 32gg\	.	.
.	.	32ccc#JJJ 32ff#\	.	.
*	*	*rep	*	*
(8B/L	.	32bbLLL 32gg\	.	.
.	.	32ccc# 32ff#\	.	.
.	.	32bb 32gg\	.	.
.	.	32ccc#JJJ 32ff#\	.	.
16eeJk 16e/)	.	32bbLLL 32gg\	.	.
.	.	32ccc# 32ff#\	.	.
16r	.	32bb 32gg\	.	.
.	.	32ccc#JJJ 32ff#\	.	.
*	*	*Xrep	*	*
=32	=32	=32	=32	=32
8B/	.	32bbLLL 32ggn\	.	.
.	.	32eee 32ff#\	.	.
.	.	32bb 32gg\	.	.
.	.	32eeeJJJ 32ff#\	.	.
8r	.	32bbLLL 32gg\	.	.
.	.	32eee 32ff#\	.	.
.	.	32bb 32gg\	.	.
.	.	32eeeJJJ 32ff#\	.	.
4cc# 4c#/	.	32bb-XLLL 32gg\	.	.
.	.	32eee 32ff#\	.	.
.	.	32bb- 32gg\	.	.
.	.	32eeeJJJ 32ff#\	.	.
.	.	32bb-LLL 32gg\	.	.
.	.	32eee 32ff#\	.	.
.	.	32bb- 32gg\	.	.
.	.	32eeeJJJ 32ff#\	.	.
!!LO:LB:g=original
=33	=33	=33	=33	=33
16dd 16d/	.	32aaLLL 32ffn\	.	.
.	.	32bb 32ee\	.	.
16r	.	32aa 32ff\	.	.
.	.	32bbJJJ 32ee\	.	.
(8A/L	.	32aaLLL 32ff\	.	.
.	.	32bb 32ee\	.	.
.	.	32aa 32ff\	.	.
.	.	32bbJJJ 32ee\	.	.
16ddJk 16d/)	.	32gg#LLL 32ff\	.	.
.	.	32bb 32ee\	.	.
16r	.	32gg# 32ff\	.	.
.	.	32bbJJJ 32ee\	.	.
!LO:TX:t=P:problem:cross-measure beam	!	!	!	!
(8A/L	.	32gg#LLL 32ff\	.	.
.	.	32bb 32ee\	.	.
.	.	32gg# 32ff\	.	.
.	.	32bbJJJ 32ee\	.	.
=34	=34	=34	=34	=34
16cc#Jk 16c#/)	.	32aa\LLL	.	.
.	.	32eee 32ffn 32ee\	.	.
16r	.	32aa\	.	.
.	.	32eeeJJJ 32ff 32ee\	.	.
16A/LL	.	32aa\LLL	.	.
.	.	32eee 32ff 32ee\	.	.
16B/JJ	.	32aa\	.	.
.	.	32eeeJJJ 32ff 32ee\	.	.
*	*	*rep	*	*
16c#/LL	.	32aa\LLL	.	.
.	.	32eee 32ff 32ee\	.	.
16d/	.	32aa\	.	.
.	.	32eeeJJJ 32ff 32ee\	.	.
16e/	.	32aa\LLL	.	.
.	.	32eee 32ff 32ee\	.	.
16fn/JJ	.	32aa\	.	.
.	.	32eeeJJJ 32ff 32ee\	.	.
*clefF4	*	*Xrep	*	*
=35	=35	=35	=35	=35
4e 4E\	.	32aaLLL 32ffn\	.	.
.	.	32ccc# 32ee\	.	.
.	.	32aa 32ff\	.	.
.	.	32ccc#JJJ 32ee\	.	.
.	.	32aaLLL 32ff\	.	.
.	.	32ccc# 32ee\	.	.
.	.	32aa 32ff\	.	.
.	.	32ccc#JJJ 32ee\	.	.
4e#X 4E#X\	.	32gg#LLL 32ee\	.	.
.	.	32bb 32dd\	.	.
.	.	32gg# 32ee\	.	.
.	.	32bbJJJ 32dd\	.	.
.	.	32gg#LLL 32ee\	.	.
.	.	32bb 32dd\	.	.
.	.	32gg# 32ee\	.	.
.	.	32bbJJJ 32dd\	.	.
=36	=36	=36	=36	=36
2f# 2F#\	.	32ff#LLL 32dd\	.	.
.	.	32aa 32cc#\	.	.
.	.	32ff# 32dd\	.	.
.	.	32aaJJJ 32cc#\	.	.
.	.	32ff#LLL 32dd\	.	.
.	.	32aa 32cc#\	.	.
.	.	32ff# 32dd\	.	.
.	.	32aaJJJ 32cc#\	.	.
*	*	*rep	*	*
.	.	32ff#LLL 32dd\	.	.
.	.	32aa 32cc#\	.	.
.	.	32ff# 32dd\	.	.
.	.	32aaJJJ 32cc#\	.	.
.	.	32ff#LLL 32dd\	.	.
.	.	32aa 32cc#\	.	.
.	.	32ff# 32dd\	.	.
.	.	32aaJJJ 32cc#\	.	.
*clefG2	*	*Xrep	*	*
!!LO:LB:g=original
=37	=37	=37	=37	=37
16b 16B/	.	32ff#LLL 32dd\	.	.
.	.	32gg# 32cc#\	.	.
16r	.	32ff# 32dd\	.	.
.	.	32gg#JJJ 32cc#\	.	.
(8F#/L	.	32ff#LLL 32dd\	.	.
.	.	32gg# 32cc#\	.	.
.	.	32ff# 32dd\	.	.
.	.	32gg#JJJ 32cc#\	.	.
16bJk 16B/)	.	32ee#XLLL 32dd\	.	.
.	.	32gg# 32cc#\	.	.
16r	.	32ee# 32dd\	.	.
.	.	32gg#JJJ 32cc#\	.	.
!LO:TX:t=P:problem:cross-measure beam	!	!	!	!
(8F#/L	.	32ee#LLL 32dd\	.	.
.	.	32gg# 32cc#\	.	.
.	.	32ee# 32dd\	.	.
.	.	32gg#JJJ 32cc#\	.	.
=38	=38	=38	=38	=38
16aJk 16A/)	.	32ff#\LLL	.	.
.	.	32ccc# 32dd 32cc#\	.	.
16r	.	32ff#\	.	.
.	.	32ccc#JJJ 32dd 32cc#\	.	.
*clefF4	*	*	*	*
16F#\LL	.	32ff#\LLL	.	.
.	.	32ccc# 32dd 32cc#\	.	.
16G#\JJ	.	32ff#\	.	.
.	.	32ccc#JJJ 32dd 32cc#\	.	.
*	*	*rep	*	*
!LO:TX:t=P:problem:grupa trzydziestodwójek poprawiona na szesnastki	!	!	!	!
16A\LL	.	32ff#\LLL	.	.
.	.	32ccc# 32dd 32cc#\	.	.
16B\	.	32ff#\	.	.
.	.	32ccc#JJJ 32dd 32cc#\	.	.
16c#\	.	32ff#\LLL	.	.
.	.	32ccc# 32dd 32cc#\	.	.
16d\JJ	.	32ff#\	.	.
.	.	32ccc#JJJ 32dd 32cc#\	.	.
*	*	*Xrep	*	*
=39	=39	=39	=39	=39
4c# 4C#\	.	32ff#LLL 32dd\	.	.
.	.	32aa 32cc#\	.	.
.	.	32ff# 32dd\	.	.
.	.	32aaJJJ 32cc#\	.	.
.	.	32ff#LLL 32dd\	.	.
.	.	32aa 32cc#\	.	.
.	.	32ff# 32dd\	.	.
.	.	32aaJJJ 32cc#\	.	.
4d 4D\	.	32ee#XLLL 32cc#\	.	.
.	.	32gg# 32b\	.	.
.	.	32ee# 32cc#\	.	.
.	.	32gg#JJJ 32b\	.	.
.	.	32ee#LLL 32cc#\	.	.
.	.	32gg# 32b\	.	.
.	.	32ee# 32cc#\	.	.
.	.	32gg#JJJ 32b\	.	.
=40	=40	=40	=40	=40
*ped	*	*	*	*
!LO:TX:t=P:problem:mixed beam	!	!	!	!
32c#LLL 32F#/	.	16ff#LL 16a/	.	.
32b#X>J 32g#>\	.	.	.	.
16b#> 16g#>\	.	16ff# 16cc# 16a/	.	p
16b#> 16g#>\	.	16ff# 16cc# 16a/	.	.
16b#>JJ 16g#>\	.	16ff#JJ 16cc# 16a/	.	.
16b#>LL 16g#>\	.	16ff#LL 16cc# 16a/	.	.
16b#> 16g#>\	.	16ff# 16cc# 16a/	.	.
16b#> 16g#>\	.	16ff# 16cc# 16a/	.	.
16b#>JJ 16g#>\	.	16ff#JJ 16cc# 16a/	.	.
!!LO:LB:g=original
=41	=41	=41	=41	=41
*	*	*ped	*	*
!	!	!LO:TX:t=P:problem:mixed beam	!	!
32r	.	16ff#\LL 16cc#\ 16a\	.	.
16FF#LL 16FFF#\	.	.	.	.
!	!	!	!	!LO:DY:t=forte
.	.	16F#< 16FF#</	.	f
16FF# 16FFF#\	.	.	.	.
.	.	16F#< 16FF#</	.	.
16FF# 16FFF#\	.	.	.	.
.	.	16F#<JJ 16FF#</	.	.
16FF# 16FFF#\	.	.	.	.
.	.	16F#<LL 16FF#</	.	.
16FF# 16FFF#\	.	.	.	.
.	.	16F#< 16FF#</	.	.
16FF# 16FFF#\	.	.	.	.
.	.	16F#< 16FF#</	.	.
16FF# 16FFF#\	.	.	.	.
.	.	16F#<JJ 16FF#</	.	.
!LO:N:vis=16	!	!	!	!
32FF#JJk 32FFF#\	.	.	.	.
=42	=42	=42	=42	=42
*ped	*	*	*	*
32r>	.	16ff#LL 16cc# 16a/	.	.
16b#X>LL 16g#>\	.	.	.	.
.	.	16ff# 16cc# 16a/	.	p
16b#> 16g#>\	.	.	.	.
.	.	16ff# 16cc# 16a/	.	.
16b#> 16g#>\	.	.	.	.
.	.	16ff#JJ 16cc# 16a/	.	.
16b#> 16g#>\	.	.	.	.
.	.	16ff#LL 16cc# 16a/	.	.
16b#> 16g#>\	.	.	.	.
.	.	16ff# 16cc# 16a/	.	.
16b#> 16g#>\	.	.	.	.
.	.	16ff# 16cc# 16a/	.	.
16b#> 16g#>\	.	.	.	.
.	.	16ff#JJ 16cc# 16a/	.	.
!LO:N:vis=16	!	!	!	!
32b#>JJk 32g#>\	.	.	.	.
=43	=43	=43	=43	=43
*	*	*ped	*	*
*	*	*^	*	*
!	!	!LO:TX:t=P:problem:mixed beam	!	!	!
32r	.	4ff# 4cc#/	16a\LL	.	.
16FF#LL 16FFF#\	.	.	.	.	.
.	.	.	16F#</ 16FF#</	.	f
16FF# 16FFF#\	.	.	.	.	.
.	.	.	16F#</ 16FF#</	.	.
16FF# 16FFF#\	.	.	.	.	.
.	.	.	16F#</JJ 16FF#</	.	.
16FF# 16FFF#\	.	.	.	.	.
.	.	4ryy	16F#</LL 16FF#</	.	.
16FF# 16FFF#\	.	.	.	.	.
.	.	.	16F#</ 16FF#</	.	.
16FF# 16FFF#\	.	.	.	.	.
.	.	.	16F#</ 16FF#</	.	.
16FF# 16FFF#\	.	.	.	.	.
.	.	.	16F#</JJ 16FF#</	.	.
!LO:N:vis=16	!	!	!	!	!
32FF#JJk 32FFF#\	.	.	.	.	.
*	*	*v	*v	*	*
=44	=44	=44	=44	=44
32r>	.	16aaLL 16ff# 16cc#/	.	.
16dd#X>LL 16b#X>\	.	.	.	.
.	.	16aa 16ff# 16cc#/	.	p
16dd#> 16b#>\	.	.	.	.
.	.	16aa 16ff# 16cc#/	.	.
16dd#> 16b#>\	.	.	.	.
.	.	16aaJJ 16ff# 16cc#/	.	.
16dd#> 16b#>\	.	.	.	.
.	.	16aaLL 16ff# 16cc#/	.	.
16dd#> 16b#>\	.	.	.	.
.	.	16aa 16ff# 16cc#/	.	.
16dd#> 16b#>\	.	.	.	.
.	.	16aa 16ff# 16cc#/	.	.
16dd#> 16b#>\	.	.	.	.
.	.	16aaJJ 16ff# 16cc#/	.	.
!LO:N:vis=16	!	!	!	!
32dd#>JJk 32b#>\	.	.	.	.
!!LO:LB:g=original
=45	=45	=45	=45	=45
!	!	!LO:TX:t=P:problem:mixed beam	!	!
*ped	*	*	*	*
32r	.	16aa\LL 16ff#\ 16cc#\	.	f
16D#XLL 16DD#X\	.	.	.	.
.	.	16d#X< 16D#X</	.	.
16D# 16DD#\	.	.	.	.
.	.	16d#< 16D#</	.	.
16D# 16DD#\	.	.	.	.
.	.	16d#<JJ 16D#</	.	.
16D# 16DD#\	.	.	.	.
.	.	16d#<LL 16D#</	.	.
16D# 16DD#\	.	.	.	.
.	.	16d#< 16D#</	.	.
16D# 16DD#\	.	.	.	.
.	.	16d#< 16D#</	.	.
16D# 16DD#\	.	.	.	.
.	.	16d#<JJ 16D#</	.	.
!LO:N:vis=16	!	!	!	!
32D#JJk 32DD#\	.	.	.	.
=46	=46	=46	=46	=46
*	*	*ped	*	*
(8EE/L	.	32aaLLL 32ee 32cc#\	.	p
.	.	32dd#X 32b#X\	.	.
.	.	32aa 32ee 32cc#\	.	.
.	.	32dd#JJJ 32b#\	.	.
8E/J)	.	32aaLLL 32ee 32cc#\	.	.
.	.	32dd# 32b#\	.	.
.	.	32aa 32ee 32cc#\	.	.
.	.	32dd#JJJ 32b#\	.	.
*clefG2	*	*	*	*
32cc#LLL 32e 32c#/	.	32aa/LLL	.	.
32b/	.	32ee/	.	.
32a/JJJ	.	32cc#/	.	.
!	!	!LO:SIC:n=2:v:s=32bn	!	!
32r	.	32eeJJJ 32b#/	.	.
32cc#/LLL	.	32aa/LLL	.	.
32b/	.	32ee/	.	.
32a/JJJ	.	32cc#/	.	.
!	!	!LO:SIC:n=2:v:s=32bn	!	!
32r	.	32eeJJJ 32b#/	.	.
*clefF4	*	*	*	*
=47	=47	=47	=47	=47
*rep	*	*rep	*	*
!LO:TX:t=P:problem:brak klucza basowego	!	!	!	!
*	*	*ped	*	*
(8EE/L	.	32aaLLL 32ee 32cc#\	.	.
.	.	32dd#X 32b#X\	.	.
.	.	32aa 32ee 32cc#\	.	.
.	.	32dd#JJJ 32b#\	.	.
8E/J)	.	32aaLLL 32ee 32cc#\	.	.
.	.	32dd# 32b#\	.	.
.	.	32aa 32ee 32cc#\	.	.
.	.	32dd#JJJ 32b#\	.	.
*clefG2	*	*	*	*
32cc#LLL 32e 32c#/	.	32aa/LLL	.	.
32b/	.	32ee/	.	.
32a/JJJ	.	32cc#/	.	.
!	!	!LO:SIC:n=2:v:s=32bn	!	!
32r	.	32eeJJJ 32b#/	.	.
32cc#/LLL	.	32aa/LLL	.	.
32b/	.	32ee/	.	.
32a/JJJ	.	32cc#/	.	.
!	!	!LO:SIC:n=2:v:s=32bn	!	!
32r	.	32eeJJJ 32b#/	.	.
*clefF4	*	*	*	*
*Xrep	*	*Xrep	*	*
=48	=48	=48	=48	=48
*	*	*ped	*	*
(8EE/L	.	32aaLLL 32ffn 32dd\	.	.
.	.	32ee 32cc#\	.	.
.	.	32aa 32ff 32dd\	.	.
.	.	32eeJJJ 32cc#\	.	.
8E/J)	.	32aaLLL 32ff 32dd\	.	.
.	.	32ee 32cc#\	.	.
.	.	32aa 32ff 32dd\	.	.
.	.	32eeJJJ 32cc#\	.	.
*clefG2	*	*	*	*
32ddLLL 32fn 32d\	.	32aa/LLL	.	.
32cc#\	.	32ff/	.	.
32b\JJJ	.	32dd/	.	.
32r	.	32ffJJJ 32b/	.	.
32dd\LLL	.	32aa/LLL	.	.
32cc#\	.	32ff/	.	.
32b\JJJ	.	32dd/	.	.
32r	.	32ffJJJ 32b/	.	.
*clefF4	*	*	*	*
!!LO:LB:g=original
=49	=49	=49	=49	=49
*	*	*ped	*	*
(8EE/L	.	32gg#LLL 32ffn 32dd\	.	.
.	.	32ee 32cc#\	.	.
.	.	32gg# 32ff 32dd\	.	.
.	.	32eeJJJ 32cc#\	.	.
8E/J)	.	32gg#LLL 32ff 32dd\	.	.
.	.	32ee 32cc#\	.	.
.	.	32gg# 32ff 32dd\	.	.
.	.	32eeJJJ 32cc#\	.	.
*clefG2	*	*	*	*
!LO:SIC:v:n=2:s=32fn	!	!	!	!
32ddLLL 32f# 32d/	.	32gg#/LLL	.	.
32cc#/	.	32ff/	.	.
32b/JJJ	.	32dd/	.	.
32r	.	32ffJJJ 32b/	.	.
32dd/LLL	.	32gg#/LLL	.	.
32cc#/	.	32ff/	.	.
32b/JJJ	.	32dd/	.	.
32r	.	32ffJJJ 32b/	.	.
*clefF4	*	*	*	*
=50	=50	=50	=50	=50
8AA\L	.	32aaLLL 32ee 32cc#\	2 3 5	pp
.	.	32b\	1	.
.	.	32ee 32cc# 32a\	2 3 5	.
.	.	32b\JJJ	1	.
!	!	!LO:TX:b:t=egualmente	!	!
8c# 8E\	5 2	32aaLLL 32ee 32cc#\	.	.
.	.	32b\	.	.
.	.	32ee 32cc# 32a\	.	.
.	.	32b\JJJ	.	.
*	*	*rep	*	*
8e 8A\	.	32aaLLL 32ee 32cc#\	.	.
.	.	32b\	.	.
.	.	32ee 32cc# 32a\	.	.
.	.	32b\JJJ	.	.
8aJ 8c#\	.	32aaLLL 32ee 32cc#\	.	.
.	.	32b\	.	.
.	.	32ee 32cc# 32a\	.	.
.	.	32b\JJJ	.	.
*	*	*Xrep	*	*
=51	=51	=51	=51	=51
*	*	*ped	*	*
8GG#\L	.	32aaLLL 32ee 32cc#\	.	.
.	.	32b\	.	.
.	.	32a\	.	.
.	.	32b\JJJ	.	.
8c# 8E\	.	32aaLLL 32ee 32cc#\	.	.
.	.	32bb\	.	.
*	*	*Xped	*	*
.	.	32ccc#\	.	.
.	.	32eee\JJJ	.	.
8e 8A\	.	32aaaLLL 32eee 32ccc#\	.	.
.	.	32bb\	.	.
.	.	32aa\	.	.
.	.	32ee\JJJ	.	.
8aJ 8c#\	.	32aaLLL 32ee 32cc#\	.	.
.	.	32b\	.	.
.	.	32a\	.	.
.	.	32b\JJJ	.	.
=52	=52	=52	=52	=52
8AA\L	.	32aaLLL 32ee 32cc#\	.	.
.	.	32b\	.	.
.	.	32ee 32cc# 32a\	.	.
.	.	32b\JJJ	.	.
8c# 8E\	.	32aaLLL 32ee 32cc#\	.	.
.	.	32b\	.	.
.	.	32ee 32cc# 32a\	.	.
.	.	32b\JJJ	.	.
*	*	*rep	*	*
8e 8A\	.	32aaLLL 32ee 32cc#\	.	.
.	.	32b\	.	.
.	.	32ee 32cc# 32a\	.	.
.	.	32b\JJJ	.	.
8aJ 8c#\	.	32aaLLL 32ee 32cc#\	.	.
.	.	32b\	.	.
.	.	32ee 32cc# 32a\	.	.
.	.	32b\JJJ	.	.
*	*	*Xrep	*	*
!!LO:LB:g=original
=53	=53	=53	=53	=53
8FFn\L	.	32aaLLL 32dd#X 32ccn\	.	.
.	.	32b\	.	.
.	.	32a\	.	.
.	.	32b\JJJ	.	.
8cn 8Fn\	.	32aaLLL 32dd# 32cc\	.	.
.	.	32bb\	.	.
.	.	32cccn\	.	.
.	.	32ddd#X\JJJ	.	.
8d#X 8A\	.	32aaaLLL 32ddd# 32ccc\	.	.
.	.	32bb\	.	.
.	.	32aa\	.	.
.	.	32dd#X\JJJ	.	.
8aJ 8c\	.	32aaLLL 32dd# 32cc\	.	.
.	.	32b\	.	.
.	.	32a\	.	.
.	.	32b\JJJ	.	.
=54	=54	=54	=54	=54
8EE\L	.	32aaLLL 32ee 32cc#X\	.	.
.	.	32b\	.	.
.	.	32a\	.	.
.	.	32b\JJJ	.	.
8c# 8E\	.	32aaLLL 32ee 32cc#\	.	.
.	.	32bb\	.	.
.	.	32ccc#\	.	.
.	.	32eee\JJJ	.	.
8f# 8A\	.	32aaaLLL 32fff# 32ccc#\	.	.
.	.	32bb\	.	.
.	.	32aa\	.	.
.	.	32ff#\JJJ	.	.
8aJ 8c#\	.	32aaLLL 32ff# 32cc#\	.	.
.	.	32b\	.	.
.	.	32a\	.	.
.	.	32b\JJJ	.	.
=55	=55	=55	=55	=55
8EE\L	.	32aaLLL 32ee 32dd\	.	.
.	.	32b\	.	.
.	.	32a\	.	.
.	.	32b\JJJ	.	.
8d 8E\	.	32aaLLL 32ee 32dd\	.	.
.	.	32bb\	.	.
.	.	32ddd\	.	.
.	.	32eee\JJJ	.	.
8e 8G#\	.	32aaaLLL 32eee 32ddd\	.	.
.	.	32bb\	.	.
.	.	32gg#\	.	.
.	.	32ee\JJJ	.	.
8g#J 8d\	.	32gg#LLL 32ee 32dd\	.	.
.	.	32b\	.	.
.	.	32g#\	.	.
.	.	32b\JJJ	.	.
=56	=56	=56	=56	=56
*	*	*ped	*	*
8AA\L	.	32aaLLL 32ee 32cc#\	2 3 5	.
.	.	32b\	1	.
.	.	32ee 32cc# 32a\	2 3 5	.
.	.	32b\JJJ	1	.
8c# 8E\	.	32aaLLL 32ee 32cc#\	.	.
.	.	32b\	.	.
*	*	*Xped	*	*
.	.	32ee 32cc# 32a\	.	.
.	.	32b\JJJ	.	.
*	*	*ped	*	*
8d 8A\	.	32ff#LLL 32dd\	4 5	.
.	.	32a\	2	.
.	.	32ee 32dd 32f#\	.	.
.	.	32a\JJJ	.	.
8f#J 8cn\	.	32ff#LLL 32dd\	.	.
.	.	32a\	.	.
*	*	*Xped	*	*
.	.	32ee 32dd 32f#\	.	.
.	.	32a\JJJ	.	.
!!LO:PB:g=original
=57	=57	=57	=57	=57
*	*	*ped	*	*
8GGn\L	.	32ggnLLL 32dd 32b\	.	.
.	.	32a\	.	.
.	.	32dd 32b 32gn\	.	.
.	.	32a\JJJ	.	.
8B 8D\	.	32ggLLL 32dd 32b\	.	.
.	.	32a\	.	.
*	*	*Xped	*	*
.	.	32dd 32b 32g\	.	.
.	.	32a\JJJ	.	.
*	*	*ped	*	*
8cn 8G#\	.	32eeLLL 32ccn\	.	.
.	.	32gn\	.	.
.	.	32dd 32cc 32e\	.	.
.	.	32g\JJJ	.	.
*	*	*Xped	*	*
8eJ 8B-X\	.	32eeLLL 32cc\	.	.
.	.	32g\	.	.
.	.	32dd 32cc 32e\	.	.
!	!	!LO:TX:b:t=etc.	!	!
.	.	32g\JJJ	.	.
=58	=58	=58	=58	=58
8FFn\L	.	32ffnLLL 32ccn 32a\	.	.
.	.	32gn\	.	.
.	.	32cc 32a 32fn\	.	.
.	.	32g\JJJ	.	.
8A 8Cn\	.	32ffLLL 32cc 32a\	.	.
.	.	32g\	.	.
.	.	32cc 32a 32f\	.	.
.	.	32g\JJJ	.	.
8B 8Fn\	.	32ddLLL 32a\	.	.
.	.	32f\	.	.
.	.	32b 32a 32d\	.	.
.	.	32f\JJJ	.	.
8dJ 8A\	.	32ddLLL 32a\	.	.
.	.	32f\	.	.
.	.	32b 32a 32d\	.	.
.	.	32f\JJJ	.	.
=59	=59	=59	=59	=59
16ELL 16EE/	.	32eeLLL 32a\	.	.
.	.	32e\	.	.
16c#XJJ 16A 16E/	.	32b 32a\	.	.
.	.	32e\JJJ	.	.
16r	.	32eeLLL 32a\	.	.
.	.	32e\	.	.
16c# 16A/	.	32b 32a\	.	.
.	.	32e\JJJ	.	.
!	!	!LO:TX:t=P:problem:32a poprawione na 32g#	!	!
16r	.	32eeLLL 32g#\	.	.
.	.	32e\	.	.
16d 16G# 16E\	.	32b 32g#\	.	.
.	.	32e\JJJ	.	.
16r	.	32eeLLL 32g#\	.	.
.	.	32e\	.	.
16d 16G#\	.	32b 32g#\	.	.
.	.	32e\JJJ	.	.
=60	=60	=60	=60	=60
*	*	*8va	*	*
8A 8AA\	.	32aaaLLL 32eee 32ccc#\	2 3 5	.
.	.	32bb\	1	.
.	.	32eee 32ccc# 32aa\	2 3 5	.
.	.	32bb\JJJ	1	.
*clefG2	*	*	*	*
8cc#L 8e/	.	32aaaLLL 32eee 32ccc#\	.	.
.	.	32bb\	.	.
.	.	32eee 32ccc# 32aa\	.	.
.	.	32bb\JJJ	.	.
*	*	*rep	*	*
8ee 8a/	.	32aaaLLL 32eee 32ccc#\	2 3 5	.
.	.	32bb\	1	.
.	.	32eee 32ccc# 32aa\	2 3 5	.
.	.	32bb\JJJ	1	.
8aaJ 8cc#/	.	32aaaLLL 32eee 32ccc#\	.	.
.	.	32bb\	.	.
.	.	32eee 32ccc# 32aa\	.	.
.	.	32bb\JJJ	.	.
*	*	*Xrep	*	*
!!LO:LB:g=original
=61	=61	=61	=61	=61
8G#/L	.	32aaaLLL 32eee 32ccc#\	.	.
.	.	32bb\	.	.
.	.	32aa\	.	.
.	.	32bb\JJJ	.	.
8cc# 8e/	.	32aaaLLL 32eee 32ccc#\	.	.
.	.	32bbb\	.	.
.	.	32cccc#\	.	.
.	.	32eeee\JJJ	.	.
8ee 8a/	.	32aaaaLLL 32eeee 32cccc#\	.	.
.	.	32bbb\	.	.
.	.	32aaa\	.	.
.	.	32eee\JJJ	.	.
8aaJ 8cc#/	.	32aaaLLL 32eee 32ccc#\	.	.
.	.	32bb\	.	.
.	.	32aa\	.	.
.	.	32bb\JJJ	.	.
=62	=62	=62	=62	=62
8F#/L	.	32aaaLLL 32eee 32ccc#\	.	.
.	.	32bb\	.	.
.	.	32eee 32ccc# 32aa\	.	.
.	.	32bb\JJJ	.	.
8cc# 8e/	.	32aaaLLL 32eee 32ccc#\	.	.
.	.	32bb\	.	.
.	.	32eee 32ccc# 32aa\	.	.
.	.	32bb\JJJ	.	.
*	*	*rep	*	*
8ee 8a/	.	32aaaLLL 32eee 32ccc#\	.	.
.	.	32bb\	.	.
.	.	32eee 32ccc# 32aa\	.	.
.	.	32bb\JJJ	.	.
8aaJ 8cc#/	.	32aaaLLL 32eee 32ccc#\	.	.
.	.	32bb\	.	.
.	.	32eee 32ccc# 32aa\	.	.
.	.	32bb\JJJ	.	.
*	*	*Xrep	*	*
=63	=63	=63	=63	=63
8Fn/	.	32aaaLLL 32ddd#X 32cccn\	.	.
.	.	32bb\	.	.
.	.	32aa\	.	.
.	.	32bb\JJJ	.	.
8ccnL 8fn\	.	32aaaLLL 32ddd# 32ccc\	.	.
.	.	32bbb\	.	.
.	.	32ccccn\	.	.
.	.	32dddd#X\JJJ	.	.
8dd#X 8a\	.	32aaaaLLL 32dddd# 32cccc\	.	.
.	.	32bbb\	.	.
.	.	32aaa\	.	.
.	.	32ddd#\JJJ	.	.
8aaJ 8cc\	.	32aaaLLL 32ddd# 32ccc\	.	.
.	.	32bb\	.	.
.	.	32aa\	.	.
.	.	32bb\JJJ	.	.
=64	=64	=64	=64	=64
8E/	.	32aaaLLL 32eee 32ccc#X\	.	.
.	.	32bb\	.	.
.	.	32aa\	.	.
.	.	32bb\JJJ	.	.
8cc#L 8e\	.	32aaaLLL 32eee 32ccc#\	.	.
.	.	32bbb\	.	.
.	.	32cccc#\	.	.
.	.	32eeee\JJJ	.	.
8ff# 8a\	.	32aaaaLLL 32ffff# 32cccc#\	.	.
.	.	32bbb\	.	.
.	.	32aaa\	.	.
.	.	32fff#\JJJ	.	.
8aaJ 8cc#\	.	32aaaLLL 32fff# 32ccc#\	.	.
.	.	32bb\	.	.
.	.	32aa\	.	.
.	.	32bb\JJJ	.	.
!!LO:LB:g=original
=65	=65	=65	=65	=65
8E/	.	32aaaLLL 32eee 32ddd\	.	.
.	.	32bb\	.	.
.	.	32aa\	.	.
.	.	32bb\JJJ	.	.
8ddL 8e\	.	32aaaLLL 32eee 32ddd\	.	.
.	.	32bbb\	.	.
.	.	32dddd\	.	.
.	.	32eeee\JJJ	.	.
8ee 8g#\	.	32aaaaLLL 32eeee 32dddd\	.	.
.	.	32bbb\	.	.
.	.	32ggg#\	.	.
.	.	32eee\JJJ	.	.
8gg#J 8dd\	.	32ggg#LLL 32eee 32ddd\	.	.
.	.	32bb\	.	.
.	.	32gg#\	.	.
.	.	32bb\JJJ	.	.
*clefF4	*	*	*	*
=66	=66	=66	=66	=66
8AA\	.	32aaaLLL 32eee 32ccc#\	.	.
.	.	32bb\	.	.
.	.	32eee 32ccc# 32aa\	.	.
.	.	32bb\JJJ	.	.
*clefG2	*	*	*	*
8cc#L 8e\	.	32aaaLLL 32eee 32ccc#\	.	.
.	.	32bb\	.	.
.	.	32eee 32ccc# 32aa\	.	.
.	.	32bb\JJJ	.	.
8dd 8a\	.	32fff#LLL 32ddd\	4 5	.
.	.	32aa\	2	.
.	.	32eee 32ddd 32ff#\	1 4 5	.
.	.	32aa\JJJ	.	.
8ff#J 8ccn\	.	32fff#LLL 32ddd\	.	.
.	.	32aa\	.	.
.	.	32eee 32ddd 32ff#\	.	.
.	.	32aa\JJJ	.	.
*clefF4	*	*	*	*
=67	=67	=67	=67	=67
8GGn\L	.	32gggnLLL 32ddd 32bb\	.	.
.	.	32aa\	.	.
.	.	32ddd 32bb 32ggn\	.	.
.	.	32aa\JJJ	.	.
*clefG2	*	*	*	*
8b 8d\	.	32gggLLL 32ddd 32bb\	.	.
.	.	32aa\	.	.
.	.	32ddd 32bb 32gg\	.	.
.	.	32aa\JJJ	.	.
8ccn 8g#\	.	32eeeLLL 32cccn\	4 5	.
.	.	32gg\	2	.
.	.	32ddd 32ccc 32ee\	1 4 5	.
.	.	32gg\JJJ	.	.
8eeJ 8b-X\	.	32eeeLLL 32ccc\	.	.
.	.	32gg\	.	.
.	.	32ddd 32ccc 32ee\	.	.
.	.	32gg\JJJ	.	.
*clefF4	*	*	*	*
=68	=68	=68	=68	=68
8FFn\	.	32fffnLLL 32cccn 32aa\	.	.
.	.	32ggn\	.	.
.	.	32ccc 32aa 32ffn\	.	.
.	.	32gg\JJJ	.	.
*clefG2	*	*	*	*
8aL 8cn/	.	32fffLLL 32ccc 32aa\	.	.
.	.	32gg\	.	.
.	.	32ccc 32aa 32ff\	.	.
.	.	32gg\JJJ	.	.
8b 8fn/	.	32dddLLL 32aa\	3 5	.
.	.	32ff\	2	.
.	.	32bb 32aa 32dd\	1 3 4	.
.	.	32ff\JJJ	.	.
8ddJ 8a/	.	32dddLLL 32aa\	.	.
.	.	32ff\	.	.
.	.	32bb 32aa 32dd\	.	.
.	.	32ff\JJJ	.	.
*clefF4	*	*	*	*
!!LO:LB:g=original
=69	=69	=69	=69	=69
16EE/	.	32eeeLLL 32aa\	.	.
.	.	32ee\	.	.
*clefG2	*	*	*	*
16cc#LL 16a 16e\	.	32bb 32aa\	.	.
.	.	32ee\JJJ	.	.
16r	.	32eeeLLL 32aa\	.	.
.	.	32ee\	.	.
16cc#JJ 16a\	.	32bb 32aa\	.	.
.	.	32ee\JJJ	.	.
16r	.	32eeeLLL 32gg#\	.	.
.	.	32ee\	.	.
16ddLL 16g# 16e\	.	32bb 32gg#\	.	.
.	.	32ee\JJJ	.	.
16r	.	32eeeLLL 32gg#\	.	.
.	.	32ee\	.	.
16ddJJ 16g#\	.	32bb 32gg#\	.	.
.	.	32ee\JJJ	.	.
*clefF4	*	*	*	*
=70	=70	=70	=70	=70
8AA\	.	32aaaLLL 32eee 32ccc#\	.	.
.	.	32bb\	.	.
.	.	32eee 32ccc# 32aa\	.	.
.	.	32bb\JJJ	.	.
*clefG2	*	*	*	*
*^	*	*	*	*
!	!	!	!LO:TX:b:t=poco marcato	!	!
16a/LL	8e\	.	32aaaLLL 32eee 32ccc#\	.	.
.	.	.	32bb\	.	.
16b/JJ	.	.	32eee 32ccc# 32aa\	.	.
.	.	.	32bb\JJJ	.	.
16ccn/LL	8.a\	.	32fff#LLL 32ddd\	.	.
.	.	.	32aa\	.	.
16dd/	.	.	32eee 32ddd 32ff#\	.	.
.	.	.	32aa\JJJ	.	.
16ee/JJ	.	.	32fff#LLL 32ddd\	.	.
.	.	.	32aa\	.	.
16r	16r	.	32eee 32ddd 32ff#\	.	.
.	.	.	32aa\JJJ	.	.
*v	*v	*	*	*	*
*clefF4	*	*	*	*
=71	=71	=71	=71	=71
8GGn\	.	32gggnLLL 32ddd 32bb\	.	.
.	.	32aa\	.	.
.	.	32ddd 32bb 32ggn\	.	.
.	.	32aa\JJJ	.	.
*clefG2	*	*	*	*
*^	*	*	*	*
16gn/LL	8d\	.	32gggLLL 32ddd 32bb\	.	.
.	.	.	32aa\	.	.
16a/JJ	.	.	32ddd 32bb 32gg\	.	.
.	.	.	32aa\JJJ	.	.
16b-X/LL	8.g\	.	32eeeLLL 32cccn\	.	.
.	.	.	32gg\	.	.
16ccn/	.	.	32ddd 32ccc 32ee\	.	.
.	.	.	32gg\JJJ	.	.
16dd/JJ	.	.	32eeeLLL 32ccc\	.	.
.	.	.	32gg\	.	.
16r	16r	.	32ddd 32ccc 32ee\	.	.
.	.	.	32gg\JJJ	.	.
*v	*v	*	*	*	*
*clefF4	*	*	*	*
=72	=72	=72	=72	=72
8FFn/	.	32fffnLLL 32cccn 32aa\	.	.
.	.	32ggn\	.	.
.	.	32ccc 32aa 32ffn\	.	.
.	.	32gg\JJJ	.	.
*clefG2	*	*	*	*
*^	*	*	*	*
16fn/LL	8cn\	.	32fffLLL 32ccc 32aa\	.	.
.	.	.	32gg\	.	.
16gn/JJ	.	.	32ccc 32aa 32ff\	.	.
.	.	.	32gg\JJJ	.	.
16a/LL	8.fn\	.	32dddLLL 32aa\	.	.
.	.	.	32ff\	.	.
16b/	.	.	32bb 32aa 32dd\	.	.
.	.	.	32ff\JJJ	.	.
16ccn/JJ	.	.	32dddLLL 32aa\	.	.
.	.	.	32ff\	.	.
16rff	16rg	.	32bb 32aa 32dd\	.	.
.	.	.	32ff\JJJ	.	.
*v	*v	*	*	*	*
*clefF4	*	*	*	*
!!LO:LB:g=original
=73	=73	=73	=73	=73
16EE/	.	32eeeLLL 32aa\	.	.
.	.	32ee\	.	.
*clefG2	*	*	*	*
16cc#LL 16a 16e 16c#\	.	32bb 32aa\	.	.
.	.	32ee\JJJ	.	.
16r	.	32eeeLLL 32aa\	.	.
.	.	32ee\	.	.
16cc#JJ 16a\	.	32bb 32aa\	.	.
.	.	32ee\JJJ	.	.
16r	.	32eeeLLL 32gg#\	.	.
.	.	32ee\	.	.
16ddLL 16g# 16e\	.	32bb 32gg#\	.	.
.	.	32ee\JJJ	.	.
16r	.	32eeeLLL 32gg#\	.	.
.	.	32ee\	.	.
16ddJJ 16g#\	.	32bb 32gg#\	.	.
.	.	32ee\JJJ	.	.
*	*	*X8va	*	*
=74	=74	=74	=74	=74
*	*	*ped	*	*
!LO:TX:t=P:problem:mixed beam	!	!LO:TX:a:t=loco	!	!
32aLLL 32c# 32A\	.	16aa 16cc#\	.	.
32dd#X>\JJJ 32b#X>	.	.	.	.
16dd#>\LL 16b#>	.	16aaLL 16ee 16cc#/	.	.
16dd#>\JJ 16b#>	.	16aa 16ee 16cc#/	.	.
16dd#>\LL 16b#>	.	16aaJJ 16ee 16cc#/	.	.
16dd#>\ 16b#>	.	16aaLL 16ee 16cc#/	.	.
16dd#>\ 16b#>	.	16aa 16ee 16cc#/	.	.
!	!	!	!LO:TX:b:t=poco a poco crescendo:ext2=cd:problem:dynamics with extention lines	!LO:DY:t=poco a poco  crescendo
16dd#>\ 16b#>	.	16aa 16ee 16cc#/	.	<
16dd#>\JJ 16b#>	.	16aaJJ 16ee 16cc#/	.	.
*clefG2	*	*	*	*
=75	=75	=75	=75	=75
*ped	*	*	*	*
32cc#/LLL	.	32aaLLL 32ggn\	.	.
32dd/	.	32bb-X 32ee\	.	.
32cc#/	.	32aa 32gg\	.	.
32dd/JJJ	.	32bb-JJJ 32ee\	.	.
32cc#/LLL	.	32aaLLL 32gg\	.	.
32dd/	.	32bb- 32ee\	.	.
32cc#/	.	32aa 32gg\	.	.
32dd/JJJ	.	32bb-JJJ 32ee\	.	.
*Xped	*	*rep	*	*
8cc#L 8a/	.	32aaLLL 32gg\	.	.
.	.	32bb- 32ee\	.	.
.	.	32aa 32gg\	.	.
.	.	32bb-JJJ 32ee\	.	.
8A/J	.	32aaLLL 32gg\	.	.
.	.	32bb- 32ee\	.	.
.	.	32aa 32gg\	.	.
.	.	32bb-JJJ 32ee\	.	.
*	*	*Xrep	*	*
=76	=76	=76	=76	=76
*ped	*	*	*	*
32dd>\LLL	.	16aaLL 16ffn/	.	.
32ee>JJJ 32cc#>\	.	.	.	.
16ee>LL 16cc#>\	.	16aa 16ff 16dd/	.	.
16ee> 16cc#>\	.	16aa 16ff 16dd/	.	.
16ee>JJ 16cc#>\	.	16aaJJ 16ff 16dd/	.	[
16ee>LL 16cc#>\	.	16aaLL 16ff 16dd/	.	.
*Xped	*	*	*	*
16ee> 16cc#>\	.	16aa 16ff 16dd/	.	.
16ee> 16cc#>\	.	16aa 16ff 16dd/	.	.
16ee>JJ 16cc#>\	.	16aaJJ 16ff 16dd/	[	.
!!LO:LB:g=original
=77	=77	=77	=77	=77
32dd\LLL	.	32aaLLL 32ffn\	.	.
32cc#\	.	32bb 32ee\	.	.
32dd\	.	32aa 32ff\	.	.
32cc#\JJJ	.	32bbJJJ 32ee\	.	.
32dd\LLL	.	32aaLLL 32ff\	.	.
32cc#\	.	32bb 32ee\	.	.
32dd\	.	32aa 32ff\	.	.
32cc#\JJJ	.	32bbJJJ 32ee\	.	.
!LO:TX:t=P:problem:mixed beam	!	!	!	!
8dd\L 8a\	.	32gg#LLL 32ff\	.	.
.	.	32bb 32dd\	.	.
.	.	32gg# 32ff\	.	.
.	.	32bbJJJ 32dd\	.	.
8A/J	.	32gg#LLL 32ff\	.	.
.	.	32bb 32dd\	.	.
.	.	32gg# 32ff\	.	.
.	.	32bbJJJ 32dd\	.	.
=78	=78	=78	=78	=78
32cc#>\LLL	.	16eee 16aa/	.	.
32dd#X>JJJ 32b#X>\	.	.	.	.
16dd#>LL 16b#>\	.	16aaLL 16ee 16cc#/	.	.
16dd#> 16b#>\	.	16aa 16ee 16cc#/	.	.
16dd#>JJ 16b#>\	.	16aaJJ 16ee 16cc#/	.	.
16dd#>LL 16b#>\	.	16aaLL 16ee 16cc#/	.	.
16dd#> 16b#>\	.	16aa 16ee 16cc#/	.	.
16dd#> 16b#>\	.	16aa 16ee 16cc#/	.	.
16dd#>JJ 16b#>\	.	16aaJJ 16ee 16cc#/	.	.
*clefG2	*	*	*	*
=79	=79	=79	=79	=79
!	!	!LO:TX:t=P:problem:32ffn poprawione na 32ggn (błędnie wpisany znak ggn)	!	!
32cc#\LLL	.	32aaLLL 32ggn\	.	.
32dd\	.	32bb-X 32ee\	.	.
32cc#\	.	32aa 32gg\	.	.
32dd\JJJ	.	32bb-JJJ 32ee\	.	.
32cc#\LLL	.	32aaLLL 32gg\	.	.
32dd\	.	32bb- 32ee\	.	.
32cc#\	.	32aa 32gg\	.	.
32dd\JJJ	.	32bb-JJJ 32ee\	.	.
*	*	*rep	*	*
!LO:TX:t=P:problem:mixed beam	!	!	!	!
8cc#\L 8a\	.	32aaLLL 32gg\	.	.
.	.	32bb- 32ee\	.	.
.	.	32aa 32gg\	.	.
.	.	32bb-JJJ 32ee\	.	.
8A/J	.	32aaLLL 32gg\	.	.
.	.	32bb- 32ee\	.	.
.	.	32aa 32gg\	.	.
.	.	32bb-JJJ 32ee\	.	.
*	*	*Xrep	*	*
=80	=80	=80	=80	=80
32dd>\LLL	.	16dddLL 16aa 16ffn/	.	.
32ee>JJJ 32cc#>\	.	.	.	.
16ee>LL 16cc#>\	.	16aa 16ff 16dd/	.	.
16ee> 16cc#>\	.	16aa 16ff 16dd/	.	.
16ee>JJ 16cc#>\	.	16aaJJ 16ff 16dd/	.	.
16ee>LL 16cc#>\	.	16aaLL 16ff 16dd/	.	.
16ee> 16cc#>\	.	16aa 16ff 16dd/	.	.
16ee> 16cc#>\	.	16aa 16ff 16dd/	.	.
16ee>JJ 16cc#>\	.	16aaJJ 16ff 16dd/	.	.
!!LO:LB:g=original
=81	=81	=81	=81	=81
32dd\LLL	.	32aaLLL 32ffn\	.	.
32cc#\	.	32bb 32ee\	.	.
32dd\	.	32aa 32ff\	.	.
32cc#\JJJ	.	32bbJJJ 32ee\	.	.
32dd\LLL	.	32aaLLL 32ff\	.	.
32cc#\	.	32bb 32ee\	.	.
32dd\	.	32aa 32ff\	.	.
32cc#\JJJ	.	32bbJJJ 32ee\	.	.
8dd\L 8a\	.	32gg#LLL 32ff\	.	.
.	.	32bb 32dd\	.	.
.	.	32gg# 32ff\	.	.
.	.	32bbJJJ 32dd\	.	.
8A\J	.	32gg#LLL 32ff\	.	.
.	.	32bb 32dd\	.	.
.	.	32gg# 32ff\	.	.
.	.	32bbJJJ 32dd\	.	.
=82	=82	=82	=82	=82
32cc#\LLL	.	32aaLLL 32ggn\	.	.
32dd\	.	32bb-X 32ee\	.	.
!	!	!	!LO:TX:b:t=crescendo....molto:ext2=cd:problem:dynamics with extention lines	!LO:HP:t=crescendo ....molto
32cc#\	.	32aa 32gg\	.	<
32dd\JJJ	.	32bb-JJJ 32ee\	.	.
32cc#\LLL	.	32aaLLL 32gg\	.	.
32dd\	.	32bb- 32ee\	.	.
32cc#\	.	32aa 32gg\	.	.
32dd\JJJ	.	32bb-JJJ 32ee\	.	.
!LO:TX:t=P:problem:mixed beam	!	!	!	!
8cc#\L 8a\	.	32aaLLL 32gg\	.	.
.	.	32eee 32ee\	.	.
.	.	32aa 32gg\	.	.
.	.	32eeeJJJ 32ee\	.	.
8A/J	.	32aaLLL 32gg\	.	.
.	.	32eee 32ee\	.	.
.	.	32aa 32gg\	.	.
.	.	32eeeJJJ 32ee\	.	.
=83	=83	=83	=83	=83
32dd\LLL	.	32aaLLL 32ffn\	.	.
32cc#\	.	32bbn 32ee\	.	.
32dd\	.	32aa 32ff\	.	.
32cc#\JJJ	.	32bbJJJ 32ee\	.	.
32dd\LLL	.	32aaLLL 32ff\	.	.
32cc#\	.	32bb 32ee\	.	.
32dd\	.	32aa 32ff\	.	.
32cc#\JJJ	.	32bbJJJ 32ee\	.	.
!LO:TX:t=P:problem:mixed beam	!	!	!	!
8dd\L 8a\	.	32gg#LLL 32ff\	.	.
.	.	32bb 32dd\	.	.
.	.	32gg# 32ff\	.	.
.	.	32bbJJJ 32dd\	.	.
8A/J	.	32gg#LLL 32ff\	.	[
.	.	32bb 32dd\	.	.
.	.	32gg# 32ff\	.	.
.	.	32bbJJJ 32dd\	.	.
=84	=84	=84	=84	=84
32cc#\LLL	.	32aaLLL 32ggn\	.	.
32dd\	.	32bb-X 32ee\	.	.
32cc#\	.	32aa 32gg\	.	.
32dd\JJJ	.	32bb-JJJ 32ee\	.	.
32cc#\LLL	.	32aaLLL 32gg\	.	.
32dd\	.	32bb- 32ee\	.	.
32cc#\	.	32aa 32gg\	.	.
32dd\JJJ	.	32bb-JJJ 32ee\	.	.
!LO:TX:t=P:problem:mixed beam	!	!	!	!
8cc#\L 8a\	.	32aaLLL 32gg\	.	.
.	.	32eee 32ee\	.	.
.	.	32aa 32gg\	.	.
.	.	32eeeJJJ 32ee\	.	.
8A/J	.	32aaLLL 32gg\	.	.
.	.	32eee 32ee\	.	.
.	.	32aa 32gg\	.	.
.	.	32eeeJJJ 32ee\	.	.
!!LO:PB:g=original
=85	=85	=85	=85	=85
32dd\LLL	.	32aaLLL 32ffn\	.	.
32cc#\	.	32bb 32ee\	.	.
32dd\	.	32aa 32ff\	.	.
32cc#\JJJ	.	32bbJJJ 32ee\	.	.
32dd\LLL	.	32aaLLL 32ff\	.	.
32cc#\	.	32bb 32ee\	.	.
32dd\	.	32aa 32ff\	.	.
32cc#\JJJ	.	32bbJJJ 32ee\	.	.
!LO:TX:t=P:problem:mixed beam	!	!	!	!
8dd\L 8a\	.	32gg#LLL 32ff\	.	.
.	.	32bb 32dd\	.	.
.	.	32gg# 32ff\	.	.
.	.	32bbJJJ 32dd\	.	.
8A/J	.	32gg#LLL 32ff\	.	.
.	.	32bb 32dd\	.	.
.	.	32gg# 32ff\	.	.
.	.	32bbJJJ 32dd\	.	.
=86	=86	=86	=86	=86
*^	*	*	*	*
*ped	*	*	*	*	*
32cc#/LLL	4a\	.	32aaLLL 32ggn\	.	f
32dd/	.	.	32bb-X 32ee\	.	.
32cc#/	.	.	32aa 32gg\	.	.
32dd/JJJ	.	.	32bb-JJJ 32ee\	.	.
32cc#/LLL	.	.	32aaLLL 32gg\	.	>
32dd/	.	.	32bb- 32ee\	.	.
32cc#/	.	.	32aa 32gg\	.	.
32dd/JJJ	.	.	32bb-JJJ 32ee\	.	.
*ped	*	*	*	*	*
32dd/LLL	4ryy	.	32bb-LLL 32aa-X\	.	.
32ee-X/	.	.	32ccc- 32ffn\	.	.
32dd/	.	.	32bb- 32aa-\	.	.
32ee-/JJJ	.	.	32ccc- 32ff\	.	.
32dd/LLL	.	.	32bb- 32aa-\	.	.
32ee-/	.	.	32ccc- 32ff\	.	.
32dd/	.	.	32bb- 32aa-\	.	.
32ee-/JJJ	.	.	32ccc-JJJ 32ff\	.	.
*v	*v	*	*	*	*
=87	=87	=87	=87	=87
*ped	*	*	*	*
32dd#X/LLL	.	32bbnLLL 32aan\	.	.
32een/	.	32cccn 32ff#X\	.	.
32dd#/	.	32bb 32aa\	.	.
32ee/JJJ	.	32cccJJJ 32ff#\	.	.
32dd#/LLL	.	32bbLLL 32aa\	.	.
32ee/	.	32ccc 32ff#\	.	]
32dd#/	.	32bb 32aa\	.	.
32ee/JJJ	.	32cccJJJ 32ff#\	.	.
*ped	*	*	*	*
32ee/LLL	.	32cccLLL 32bb-X\	.	.
32ffn/	.	32ddd-X 32ggn\	.	.
32ee/	.	32ccc 32bb-\	.	.
32ff/JJJ	.	32ddd-JJJ 32gg\	.	.
32ee/LLL	.	32cccLLL 32bb-\	.	.
32ff/	.	32ddd- 32gg\	.	.
32ee/	.	32ccc 32bb-\	.	.
32ff/JJJ	.	32ddd-JJJ 32gg\	.	.
=88	=88	=88	=88	=88
!	!	!	!	!LO:HP:t=dim. molto
32ee#X/LLL	.	32ccc#XLLL 32bbn\	.	>
32ff#/	.	32ddd 32gg#X\	.	.
32ee#/	.	32ccc# 32bb\	.	.
32ff#/JJJ	.	32dddJJJ 32gg#\	.	.
32ee#/LLL	.	32ccc#LLL 32bb\	.	.
32ff#/	.	32ddd 32gg#\	.	.
32ee#/	.	32ccc# 32bb\	.	.
!!LO:LB:g=original
32ff#/JJJ	.	32dddJJJ 32gg#\	.	]
32ee#X\LLL	.	32ccc#LLL 32bb\	.	.
32ff#\	.	32ddd 32gg#\	.	.
32ee#\	.	32ccc# 32bb\	.	.
32ff#\JJJ	.	32dddJJJ 32gg#\	.	.
32ee#\LLL	.	32ccc#LLL 32bb\	.	.
32ff#\	.	32ddd 32gg#\	.	.
32ee#\	.	32ccc# 32bb\	.	.
32ff#\JJJ	.	32dddJJJ 32gg#\	.	.
=89	=89	=89	=89	=89
32ee#X\LLL	.	32ccc#LLL 32bb\	.	.
32ff#\	.	32ddd 32gg#\	.	.
32ee#\	.	32ccc# 32bb\	.	.
32ff#\JJJ	.	32dddJJJ 32gg#\	.	.
32ee#\LLL	.	32ccc#LLL 32bb\	.	.
32ff#\	.	32ddd 32gg#\	.	.
32ee#\	.	32ccc# 32bb\	.	.
32ff#\JJJ	.	32dddJJJ 32gg#\	.	.
16ee# 16cc#\	.	32ccc#LLL 32bb\	.	.
.	.	32ddd 32gg#\	.	.
16r	.	32ccc# 32bb\	.	.
.	.	32dddJJJ 32gg#\	.	.
*	*	*rep	*	*
!LO:TX:t=P:problem:cross-measure beam	!	!	!	!
(8c#/L	.	32ccc#LLL 32bb\	.	.
.	.	32ddd 32gg#\	.	.
.	.	32ccc# 32bb\	.	.
.	.	32dddJJJ 32gg#\	.	.
*	*	*Xrep	*	*
=90	=90	=90	=90	=90
16ff#Jk 16f#/)	.	32ccc#LLL 32aa\	.	pp
!	!	!LO:TX:b:t=marcato il tema	!	!
.	.	32ddd 32gg#\	.	.
16r	.	32ccc# 32aa\	.	.
.	.	32dddJJJ 32gg#\	.	.
(8c#/L	.	32ccc#LLL 32aa\	.	.
.	.	32ddd 32gg#\	.	.
.	.	32ccc# 32aa\	.	.
.	.	32dddJJJ 32gg#\	.	.
*	*	*rep	*	*
16ff#Jk 16f#/)	.	32ccc#LLL 32aa\	.	.
.	.	32ddd 32gg#\	.	.
16r	.	32ccc# 32aa\	.	.
.	.	32dddJJJ 32gg#\	.	.
!LO:TX:t=P:problem:cross-measure beam	!	!	!	!
(8c#/L	.	32ccc#LLL 32aa\	.	.
.	.	32ddd 32gg#\	.	.
.	.	32ccc# 32aa\	.	.
.	.	32dddJJJ 32gg#\	.	.
*	*	*Xrep	*	*
=91	=91	=91	=91	=91
*ped	*	*	*	*
16ff#Jk 16f#/)	.	32ccc#LLL 32aa\	.	.
.	.	32fff# 32gg#\	.	.
16r	.	32ccc# 32aa\	.	.
.	.	32fff#JJJ 32gg#\	.	.
*clefF4	*	*	*	*
16F#\LL	.	32ccc#LLL 32aa\	.	.
.	.	32fff# 32gg#\	.	.
*Xped	*	*	*	*
16G#\JJ	.	32ccc# 32aa\	.	.
.	.	32fff#JJJ 32gg#\	.	.
*	*	*rep	*	*
16A\LL	.	32ccc#LLL 32aa\	.	.
.	.	32fff# 32gg#\	.	.
16B\	.	32ccc# 32aa\	.	.
.	.	32fff#JJJ 32gg#\	.	.
16c#\	.	32ccc#LLL 32aa\	.	.
.	.	32fff# 32gg#\	.	.
16d\JJ	.	32ccc# 32aa\	.	.
.	.	32fff#JJJ 32gg#\	.	.
*clefG2	*	*Xrep	*	*
=92	=92	=92	=92	=92
(8c#/L	.	32ccc#LLL 32aa\	.	.
.	.	32ddd 32gg#\	.	.
.	.	32ccc# 32aa\	.	.
.	.	32dddJJJ 32gg#\	.	.
16ff#Jk 16f#/)	.	32ccc#LLL 32aa\	.	.
.	.	32ddd 32gg#\	.	.
16r	.	32ccc# 32aa\	.	.
.	.	32dddJJJ 32gg#\	.	.
*	*	*rep	*	*
(8c#/L	.	32ccc#LLL 32aa\	.	.
.	.	32ddd 32gg#\	.	.
.	.	32ccc# 32aa\	.	.
.	.	32dddJJJ 32gg#\	.	.
16ff#Jk 16f#/)	.	32ccc#LLL 32aa\	.	.
.	.	32ddd 32gg#\	.	.
16r	.	32ccc# 32aa\	.	.
.	.	32dddJJJ 32gg#\	.	.
*	*	*Xrep	*	*
!!LO:LB:g=original
=93	=93	=93	=93	=93
8c#/	.	32ccc#LLL 32aa\	.	.
.	.	32fff# 32gg#\	.	.
.	.	32ccc# 32aa\	.	.
.	.	32fff#JJJ 32gg#\	.	.
8r	.	32ccc#LLL 32aa\	.	.
.	.	32fff# 32gg#\	.	.
.	.	32ccc# 32aa\	.	.
.	.	32fff#JJJ 32gg#\	.	.
4dd#X 4d#X/	.	32cccnLLL 32aa\	.	.
.	.	32fff# 32gg#\	.	.
.	.	32ccc 32aa\	.	.
.	.	32fff#JJJ 32gg#\	.	.
.	.	32cccLLL 32aa\	.	.
.	.	32fff# 32gg#\	.	.
.	.	32ccc 32aa\	.	.
.	.	32fff#JJJ 32gg#\	.	.
=94	=94	=94	=94	=94
16ee 16e/	.	32bbLLL 32ggn\	.	.
.	.	32ccc# 32ff#\	.	.
16r	.	32bb 32gg\	.	.
.	.	32ccc#JJJ 32ff#\	.	.
(8B/L	.	32bbLLL 32gg\	.	.
.	.	32ccc# 32ff#\	.	.
.	.	32bb 32gg\	.	.
.	.	32ccc#JJJ 32ff#\	.	.
*	*	*rep	*	*
16eeJk 16e/)	.	32bbLLL 32gg\	.	.
.	.	32ccc# 32ff#\	.	.
16r	.	32bb 32gg\	.	.
.	.	32ccc#JJJ 32ff#\	.	.
!LO:TX:t=P:problem:cross-measure beam	!	!	!	!
(8B/L	.	32bbLLL 32gg\	.	.
.	.	32ccc# 32ff#\	.	.
.	.	32bb 32gg\	.	.
.	.	32ccc#JJJ 32ff#\	.	.
*	*	*Xrep	*	*
=95	=95	=95	=95	=95
16eeJk 16e/)	.	32bbLLL 32ggn\	.	.
.	.	32eee 32ff#\	.	.
16r	.	32bb 32gg\	.	.
.	.	32eeeJJJ 32ff#\	.	.
*clefF4	*	*	*	*
16E\LL	.	32bbLLL 32gg\	.	.
.	.	32eee 32ff#\	.	.
16F#\JJ	.	32bb 32gg\	.	.
.	.	32eeeJJJ 32ff#\	.	.
*	*	*rep	*	*
16Gn\LL	.	32bbLLL 32gg\	.	.
.	.	32eee 32ff#\	.	.
16A\	.	32bb 32gg\	.	.
.	.	32eeeJJJ 32ff#\	.	.
16B\	.	32bbLLL 32gg\	.	.
.	.	32eee 32ff#\	.	.
16c#\JJ	.	32bb 32gg\	.	.
.	.	32eeeJJJ 32ff#\	.	.
*clefG2	*	*Xrep	*	*
=96	=96	=96	=96	=96
(8B/L	.	32bbLLL 32ggn\	.	.
.	.	32ccc# 32ff#\	.	.
.	.	32bb 32gg\	.	.
.	.	32ccc#JJJ 32ff#\	.	.
16eeJk 16e/)	.	32bbLLL 32gg\	.	.
.	.	32ccc# 32ff#\	.	.
16r	.	32bb 32gg\	.	.
.	.	32ccc#JJJ 32ff#\	.	.
*	*	*rep	*	*
(8B/L	.	32bbLLL 32gg\	.	.
.	.	32ccc# 32ff#\	.	.
.	.	32bb 32gg\	.	.
.	.	32ccc#JJJ 32ff#\	.	.
16eeJk 16e/)	.	32bbLLL 32gg\	.	.
.	.	32ccc# 32ff#\	.	.
16r	.	32bb 32gg\	.	.
.	.	32ccc#JJJ 32ff#\	.	.
*	*	*Xrep	*	*
=97	=97	=97	=97	=97
8B/	.	32bbLLL 32ggn\	.	.
.	.	32eee 32ff#\	.	.
.	.	32bb 32gg\	.	.
.	.	32eeeJJJ 32ff#\	.	.
8r	.	32bbLLL 32gg\	.	.
.	.	32eee 32ff#\	.	.
.	.	32bb 32gg\	.	.
!!LO:LB:g=original
.	.	32eeeJJJ 32ff#\	.	.
4cc# 4c#/	.	32bb-XLLL 32ggn\	.	.
.	.	32eee 32ff#\	.	.
.	.	32bb- 32gg\	.	.
.	.	32eeeJJJ 32ff#\	.	.
.	.	32bb-LLL 32gg\	.	.
.	.	32eee 32ff#\	.	.
.	.	32bb- 32gg\	.	.
.	.	32eeeJJJ 32ff#\	.	.
=98	=98	=98	=98	=98
16dd 16d/	.	32aaLLL 32ffn\	.	.
.	.	32bb 32ee\	.	.
16r	.	32aa 32ff\	.	.
.	.	32bbJJJ 32ee\	.	.
(8A/L	.	32aaLLL 32ff\	.	.
.	.	32bb 32ee\	.	.
.	.	32aa 32ff\	.	.
.	.	32bbJJJ 32ee\	.	.
16ddJk 16d/)	.	32gg#LLL 32ff\	.	.
.	.	32bb 32ee\	.	.
16r	.	32gg# 32ff\	.	.
.	.	32bbJJJ 32ee\	.	.
!LO:TX:t=P:problem:cross-measure beam	!	!	!	!
(8A/L	.	32gg#LLL 32ff\	.	.
.	.	32bb 32ee\	.	.
.	.	32gg# 32ff\	.	.
.	.	32bbJJJ 32ee\	.	.
=99	=99	=99	=99	=99
16cc#Jk 16c#/)	.	32aa\LLL	.	.
.	.	32eee 32ffn 32ee\	.	.
16r	.	32aa\	.	.
.	.	32eeeJJJ 32ff 32ee\	.	.
16A/LL	.	32aa\LLL	.	.
.	.	32eee 32ff 32ee\	.	.
16B/JJ	.	32aa\	.	.
.	.	32eeeJJJ 32ff 32ee\	.	.
*	*	*rep	*	*
16c#/LL	.	32aa\LLL	.	.
.	.	32eee 32ff 32ee\	.	.
16d/	.	32aa\	.	.
.	.	32eeeJJJ 32ff 32ee\	.	.
16e/	.	32aa\LLL	.	.
.	.	32eee 32ff 32ee\	.	.
16fn/JJ	.	32aa\	.	.
.	.	32eeeJJJ 32ff 32ee\	.	.
*clefF4	*	*Xrep	*	*
=100	=100	=100	=100	=100
4e 4E\	.	32aaLLL 32ffn\	.	.
.	.	32ccc# 32ee\	.	.
.	.	32aa 32ff\	.	.
.	.	32ccc#JJJ 32ee\	.	.
.	.	32aaLLL 32ff\	.	.
.	.	32ccc# 32ee\	.	.
.	.	32aa 32ff\	.	.
.	.	32ccc#JJJ 32ee\	.	.
4e#X 4E#X\	.	32gg#LLL 32ee\	.	.
.	.	32bb 32dd\	.	.
.	.	32gg# 32ee\	.	.
.	.	32bbJJJ 32dd\	.	.
.	.	32gg#LLL 32ee\	.	.
.	.	32bb 32dd\	.	.
.	.	32gg# 32ee\	.	.
.	.	32bbJJJ 32dd\	.	.
=101	=101	=101	=101	=101
*2\right	*	*	*	*
2f# 2F#\	.	32ff#LLL 32dd\	.	.
.	.	32aa 32cc#\	.	.
.	.	32ff# 32dd\	.	.
.	.	32aaJJJ 32cc#\	.	.
.	.	32ff#LLL 32dd\	.	.
.	.	32aa 32cc#\	.	.
.	.	32ff# 32dd\	.	.
.	.	32aaJJJ 32cc#\	.	.
*	*	*rep	*	*
.	.	32ff#LLL 32dd\	.	.
.	.	32aa 32cc#\	.	.
.	.	32ff# 32dd\	.	.
.	.	32aaJJJ 32cc#\	.	.
.	.	32ff#LLL 32dd\	.	.
.	.	32aa 32cc#\	.	.
.	.	32ff# 32dd\	.	.
.	.	32aaJJJ 32cc#\	.	.
*clefG2	*	*Xrep	*	*
!!LO:LB:g=original
=102	=102	=102	=102	=102
16b 16B/	.	32ff#LLL 32dd\	.	.
.	.	32gg# 32cc#\	.	.
16r	.	32ff# 32dd\	.	.
.	.	32gg#JJJ 32cc#\	.	.
!	!	!LO:TX:a:t=+	!	!
(8F#/L	.	32ff#LLL 32dd\	.	.
.	.	32gg# 32cc#\	.	.
.	.	32ff# 32dd\	.	.
.	.	32gg#JJJ 32cc#\	.	.
16bJk 16B/)	.	32ee#XLLL 32dd\	.	.
.	.	32gg# 32cc#\	.	.
16r	.	32ee# 32dd\	.	.
.	.	32gg#JJJ 32cc#\	.	.
!LO:TX:t=P:problem:cross-measure beam	!	!	!	!
(8F#/L	.	32ee#LLL 32dd\	.	.
.	.	32gg# 32cc#\	.	.
.	.	32ee# 32dd\	.	.
.	.	32gg#JJJ 32cc#\	.	.
=103	=103	=103	=103	=103
16aJk 16A/)	.	32ff#\LLL	.	.
.	.	32ccc# 32dd 32cc#\	.	.
16r	.	32ff#\	.	.
.	.	32ccc#JJJ 32dd 32cc#\	.	.
*clefF4	*	*	*	*
16F#\LL	.	32ff#\LLL	.	.
.	.	32ccc# 32dd 32cc#\	.	.
16G#\JJ	.	32ff#\	.	.
.	.	32ccc#JJJ 32dd 32cc#\	.	.
*	*	*rep	*	*
16A\LL	.	32ff#\LLL	.	.
.	.	32ccc# 32dd 32cc#\	.	.
16B\	.	32ff#\	.	.
.	.	32ccc#JJJ 32dd 32cc#\	.	.
16c#\	.	32ff#\LLL	.	.
.	.	32ccc# 32dd 32cc#\	.	.
16d\JJ	.	32ff#\	.	.
.	.	32ccc#JJJ 32dd 32cc#\	.	.
*	*	*Xrep	*	*
=104	=104	=104	=104	=104
4c# 4C#\	.	32ff#LLL 32dd\	.	.
.	.	32aa 32cc#\	.	.
.	.	32ff# 32dd\	.	.
.	.	32aaJJJ 32cc#\	.	.
.	.	32ff#LLL 32dd\	.	.
.	.	32aa 32cc#\	.	.
.	.	32ff# 32dd\	.	.
.	.	32aaJJJ 32cc#\	.	.
4d 4D\	.	32ee#XLLL 32cc#\	.	.
.	.	32gg# 32b\	.	.
.	.	32ee# 32cc#\	.	.
.	.	32gg#JJJ 32b\	.	.
.	.	32ee#LLL 32cc#\	.	.
.	.	32gg# 32b\	.	.
.	.	32ee# 32cc#\	.	.
.	.	32gg#JJJ 32b\	.	.
=105	=105	=105	=105	=105
!LO:TX:t=P:problem:mixed beam	!	!	!	!
32c#/LLL 32F#/	.	16ff#LL 16a/	.	.
32b#X>\JJJ 32g#>\	.	.	.	.
16b#>LL 16g#>\	.	16ff# 16cc# 16a/	.	p
16b#> 16g#>\	.	16ff# 16cc# 16a/	.	.
16b#>JJ 16g#>\	.	16ff#JJ 16cc# 16a/	.	.
16b#>LL 16g#>\	.	16ff#LL 16cc# 16a/	.	.
16b#> 16g#>\	.	16ff# 16cc# 16a/	.	.
16b#> 16g#>\	.	16ff# 16cc# 16a/	.	.
16b#>JJ 16g#>\	.	16ff#JJ 16cc# 16a/	.	.
!!LO:LB:g=original
=106	=106	=106	=106	=106
32r	.	16ff# 16cc# 16a/	.	.
16FF#LL 16FFF#\	.	.	.	.
.	.	16F#<LL 16FF#</	.	f
16FF# 16FFF#\	.	.	.	.
.	.	16F#< 16FF#</	.	.
16FF# 16FFF#\	.	.	.	.
.	.	16F#<JJ 16FF#</	.	.
16FF#JJ 16FFF#\	.	.	.	.
.	.	16F#<LL 16FF#</	.	.
16FF#LL 16FFF#\	.	.	.	.
.	.	16F#< 16FF#</	.	.
16FF# 16FFF#\	.	.	.	.
.	.	16F#< 16FF#</	.	.
16FF# 16FFF#\	.	.	.	.
.	.	16F#<JJ 16FF#</	.	.
!LO:N:vis=16	!	!	!	!
32FF#JJk 32FFF#\	.	.	.	.
=107	=107	=107	=107	=107
32r	.	16ff#LL 16cc# 16a/	.	.
16b#XLL 16g#\	.	.	.	.
.	.	16ff# 16cc# 16a/	.	p
16b# 16g#\	.	.	.	.
.	.	16ff# 16cc# 16a/	.	.
16b# 16g#\	.	.	.	.
.	.	16ff#JJ 16cc# 16a/	.	.
16b# 16g#\	.	.	.	.
.	.	16ff#LL 16cc# 16a/	.	.
16b# 16g#\	.	.	.	.
.	.	16ff# 16cc# 16a/	.	.
16b# 16g#\	.	.	.	.
.	.	16ff# 16cc# 16a/	.	.
16b# 16g#\	.	.	.	.
.	.	16ff#JJ 16cc# 16a/	.	.
!LO:N:vis=16	!	!	!	!
32b#JJk 32g#\	.	.	.	.
=108	=108	=108	=108	=108
32r	.	16ff# 16cc# 16a/	.	.
16FF#LL 16FFF#\	.	.	.	.
.	.	16F#LL 16FF#/	.	f
16FF# 16FFF#\	.	.	.	.
.	.	16F# 16FF#/	.	.
16FF# 16FFF#\	.	.	.	.
.	.	16F#JJ 16FF#/	.	.
16FF# 16FFF#\	.	.	.	.
.	.	16F#LL 16FF#/	.	.
16FF# 16FFF#\	.	.	.	.
.	.	16F# 16FF#/	.	.
16FF# 16FFF#\	.	.	.	.
.	.	16F# 16FF#/	.	.
16FF# 16FFF#\	.	.	.	.
.	.	16F#JJ 16FF#/	.	.
!LO:N:vis=16	!	!	!	!
32FF#JJk 32FFF#\	.	.	.	.
=109	=109	=109	=109	=109
16dd#X>LL 16b#X>\	.	16aaLL 16ff# 16cc#/	.	.
!	!	!LO:TX:b:t=poco a poco crescendo molto:ext2=cd:problem:dynamics with extention lines	!	!LO:DY:t=poco a poco crescendo molto
16dd#> 16b#>\	.	16aa 16ff# 16cc#/	.	<
16dd#> 16b#>\	.	16aa 16ff# 16cc#/	.	.
16dd#>JJ 16b#>\	.	16aaJJ 16ff# 16cc#/	.	.
*rep	*	*rep	*	*
16dd#>LL 16b#>\	.	16aaLL 16ff# 16cc#/	.	.
16dd#> 16b#>\	.	16aa 16ff# 16cc#/	.	.
16dd#> 16b#>\	.	16aa 16ff# 16cc#/	.	.
16dd#>JJ 16b#>\	.	16aaJJ 16ff# 16cc#/	.	.
*Xrep	*	*Xrep	*	*
!!LO:LB:g=original
=110	=110	=110	=110	=110
!	!	!LO:TX:t=P:problem:mixed beam	!	!
32r	.	16aa\LL 16ff#\ 16cc#\	.	.
16C#LL 16CC#\	.	.	.	.
.	.	16c#< 16C#</	.	.
16C# 16CC#\	.	.	.	.
.	.	16c#< 16C#</	.	.
16C# 16CC#\	.	.	.	.
.	.	16c#<JJ 16C#</	.	.
16C#JJ 16CC#\	.	.	.	.
.	.	16c#<LL 16C#</	.	.
16C#LL 16CC#\	.	.	.	.
.	.	16c#< 16C#</	.	.
16C# 16CC#\	.	.	.	.
.	.	16c#< 16C#</	.	.
16C# 16CC#\	.	.	.	.
.	.	16c#<JJ 16C#</	.	.
!LO:N:vis=16	!	!	!	!
32C#JJk 32CC#\	.	.	.	.
=111	=111	=111	=111	=111
16gg#>LL 16ee#X>\	.	16ccc#LL 16aa 16ff#/	.	.
16gg#> 16ee#>\	.	16ccc# 16aa 16ff#/	.	.
16gg#> 16ee#>\	.	16ccc# 16aa 16ff#/	.	.
16gg#>JJ 16ee#>\	.	16ccc#JJ 16aa 16ff#/	.	[
*rep	*	*rep	*	*
16gg#>LL 16ee#>\	.	16ccc#LL 16aa 16ff#/	.	.
16gg#> 16ee#>\	.	16ccc# 16aa 16ff#/	.	.
16gg#> 16ee#>\	.	16ccc# 16aa 16ff#/	.	.
16gg#>JJ 16ee#>\	.	16ccc#JJ 16aa 16ff#/	.	.
*Xrep	*	*Xrep	*	*
=112	=112	=112	=112	=112
!	!	!LO:TX:t=P:problem:mixed beam	!	!
32r	.	16ccc#\LL 16aa\ 16ff#\	.	.
16F#LL 16FF#\	.	.	.	.
.	.	16f#< 16F#</	.	.
16F# 16FF#\	.	.	.	.
.	.	16f#< 16F#</	.	.
16F# 16FF#\	.	.	.	.
.	.	16f#<JJ 16F#</	.	.
16F#JJ 16FF#\	.	.	.	.
.	.	16f#<LL 16F#</	.	.
16F#LL 16FF#\	.	.	.	.
.	.	16f#< 16F#</	.	.
16F# 16FF#\	.	.	.	.
.	.	16f#< 16F#</	.	.
16F# 16FF#\	.	.	.	.
.	.	16f#<JJ 16F#</	.	.
!LO:N:vis=16	!	!	!	!
32F#JJk 32FF#\	.	.	.	.
!!LO:PB:g=original
=113	=113	=113	=113	=113
!	!	!LO:TX:b:t=molto crescendo sempre:ext2=cd:problem:dynamics with extention lines	!	!LO:HP:t=molto crescendo sempre
16bb#X>LL 16gg#>\	.	16fff#LL 16ccc# 16aa/	.	<
16bb#> 16gg#>\	.	16fff# 16ccc# 16aa/	.	.
16bb#> 16gg#>\	.	16fff# 16ccc# 16aa/	.	.
16bb#>JJ 16gg#>\	.	16fff#JJ 16ccc# 16aa/	.	.
16gg#>LL 16ee#X>\	.	16fff#LL 16ccc# 16aa/	.	.
16gg#> 16ee#>\	.	16ccc# 16aa 16ff#/	.	.
16gg#> 16ee#>\	.	16ccc# 16aa 16ff#/	.	.
16gg#>JJ 16ee#>\	.	16ccc#JJ 16aa 16ff#/	.	.
=114	=114	=114	=114	=114
16dd#X>LL 16b#X>\	.	16ccc#LL 16aa 16ff#/	.	.
16dd#> 16b#>\	.	16aa 16ff# 16cc#/	.	.
16dd#> 16b#>\	.	16aa 16ff# 16cc#/	.	.
16dd#>JJ 16b#>\	.	16aaJJ 16ff# 16cc#/	.	.
16b#>LL 16g#>\	.	16aaLL 16ff# 16cc#/	.	[
16b#> 16g#>\	.	16ff# 16cc# 16a/	.	.
16b#> 16g#>\	.	16ff# 16cc# 16a/	.	.
16b#>JJ 16g#>\	.	16ff#JJ 16cc# 16a/	.	.
=115	=115	=115	=115	=115
16g#>LL 16e#X>\	.	16ff#LL 16cc# 16a/	.	.
16g#> 16e#>\	.	16cc# 16a 16f#/	.	.
16d#X> 16B#X>\	.	16cc# 16a 16f#/	.	.
16d#>JJ 16B#>\	.	16aJJ 16f# 16c#/	.	.
16B#X>LL 16G#>\	.	16aLL 16f# 16c#/	.	.
16B#>JJ 16G#>\	.	16f#JJ 16c# 16A/	.	.
16G#LL 16E#X\	.	16f#<LL 16c#< 16A</	.	.
16G#JJ 16E#\	.	16c#<JJ 16A< 16F#</	.	.
!!LO:LB:g=original
=116	=116	=116	=116	=116
16D#XLL 16BB#X\	.	16c#<LL 16A< 16F#</	.	.
16D# 16BB#\	.	16A< 16F#< 16C#</	.	.
16BB# 16GG#\	.	16A< 16F#< 16C#</	.	.
16BB#JJ 16GG#\	.	16F#<JJ 16C#< 16AA</	.	.
16GG#LL 16EE#X\	.	16F#<LL 16C#< 16AA</	.	.
16GG# 16EE#\	.	16C#< 16AA< 16FF#</	.	.
16DD#X 16BBB#X\	.	16C#< 16AA< 16FF#</	.	.
16DD#JJ 16BBB#\	.	16AA<JJ 16FF#< 16CC#</	.	.
=117	=117	=117	=117	=117
32CC#LLL 32FFF#\	.	32F#<LLL 32C#< 32FF#</	.	ff
!	!	!LO:TX:b:t=con tutta forza	!	!
32GGGn\	.	32GGn</	.	.
32GGG#X\	.	32GG#X</	.	.
32AAA\JJJ	.	32AA</JJJ	.	.
32CC#LLL 32AAA#X\	.	32F#<LLL 32C<# 32AA#X</	.	.
32BBB\	.	32BB</	.	.
32BBB#X\	.	32BB#X</	.	.
32CC#\JJJ	.	32C#</JJJ	.	.
32BBLLL 32CC#\	.	32c#<LLL 32B< 32C#</	.	.
32DD\	.	32D</	.	.
32DD#X\	.	32D#X</	.	.
32EE\	.	32E</	.	.
32EE#X\	.	32E#X</	.	.
32FF#\	.	32F#</	.	.
32GGn\	.	32Gn</	.	.
32GG#X\JJJ	.	32G#X</JJJ	.	.
=118	=118	=118	=118	=118
32C#LLL 32FF#\	.	32f#LLL 32c# 32F#/	.	.
32GGn\	.	32Gn/	.	.
32GG#X\	.	32G#X/	.	.
32AA\JJJ	.	32A/JJJ	.	.
32C#LLL 32AA#X\	.	32f#LLL 32c# 32A#X/	.	.
32BB\	.	32B/	.	.
32BB#X\	.	32B#X/	.	.
32C#\JJJ	.	32c#/JJJ	.	.
32BLLL 32C#\	.	32cc#LLL 32b 32c#/	.	.
32D\	.	32d/	.	.
32D#X\	.	32d#X/	.	.
32E\	.	32e/	.	.
32E#X\	.	32e#X/	.	.
32F#\	.	32f#/	.	.
32Gn\	.	32gn/	.	.
32G#X\JJJ	.	32g#X/JJJ	.	.
!!LO:LB:g=original
=119	=119	=119	=119	=119
32c#LLL 32F#\	.	32ff#LLL 32cc# 32f#\	.	<
32Gn\	.	32gn\	.	.
32G#X\	.	32g#X\	.	.
32A\JJJ	.	32a\JJJ	.	.
32c#LLL 32A#X\	.	32ff#LLL 32cc# 32a#X\	.	.
32B\	.	32b\	.	.
32B#X\	.	32b#X\	.	.
32c#\JJJ	.	32cc#\JJJ	.	.
32f#LLL 32d\	.	32ff#LLL 32dd\	.	[ >
32c#\	.	32cc#\	.	.
32cn\	.	32ccn\	.	.
32B#\	.	32b#\	.	.
32A#X\	.	32a#X\	.	.
32An\	.	32an\	.	.
32G#\	.	32g#\	.	.
32Gn\JJJ	.	32gn\JJJ	.	]]
=120	=120	=120	=120	=120
32c#LLL 32F#\	.	32ff#LLL 32cc# 32f#\	.	<
32Gn\	.	32gn\	.	.
32G#X\	.	32g#X\	.	.
32A\JJJ	.	32a\JJJ	.	.
32c#LLL 32A#X\	.	32ff#LLL 32cc# 32a#X\	.	.
32B\	.	32b\	.	.
32B#X\	.	32b#X\	.	.
32c#\JJJ	.	32cc#\JJJ	.	.
32f#LLL 32d\	.	32ff#LLL 32dd\	.	[ >
32c#\	.	32cc#\	.	.
32cn\	.	32ccn\	.	.
32B#\	.	32b#\	.	.
32A#\	.	32a#X\	.	.
32An\	.	32an\	.	.
32G#\	.	32g#\	.	.
32Gn\JJJ	.	32gn\JJJ	.	]]
=121	=121	=121	=121	=121
32F#\LLL	.	32ff#LLL 32cc# 32f#\	.	.
32E#X\	.	32e#X\	.	.
32En\	.	32en\	.	.
32D#X\	.	32d#X\	.	.
32Dn\	.	32dn\	.	.
32C#\	.	32c#\	.	.
32Cn\	.	32cn\	.	.
32BB\JJJ	.	32B\JJJ	.	.
32AA#X\LLL	.	32A#X</LLL	.	.
32AAn\	.	32An</	.	.
32GG#\	.	32G#</	.	.
32GGn\	.	32Gn</	.	.
32FF#\	.	32F#</	.	.
32EE#X\	.	32E#X</	.	.
32EEn\	.	32En</	.	.
32DD#X\JJJ	.	32D#X</JJJ	.	.
!!LO:LB:g=original
=122	=122	=122	=122	=122
32DD\LLL	.	32Dn</LLL	.	.
32CC#\	.	32C#</	.	.
32CCn\	.	32Cn</	.	.
32BBB\JJJ	.	32BB</JJJ	.	.
32AAA#X\LLL	.	32AA#X</LLL	.	.
32AAAn\	.	32AAn</	.	.
32GGG#\	.	32GG#</	.	.
32GGGn\JJJ	.	32GGn</JJJ	.	.
!	!	!LO:TX:t=P:problem:mixed beam	!	!
8FFF#\L	.	8FF#</L	.	.
16AJk 16C# 16FF#\	.	16aaJk 16cc# 16f#'\	.	.
16r	.	16r	.	.
=123	=123	=123	=123	=123
!	!	!LO:TX:a:t=Fine.	!	!
.	.	8qF#<;/	.	.
2FF# 2FFF#\	.	2F#<;/	.	.
==	==	==	==	==
*-	*-	*-	*-	*-
!!!system-decoration: [(s1,s2)]
!!!RDF**kern: > = above
!!!RDF**kern: < = below
!!!EED: Leszek Kubiak
!!!EST: 2021-05-26
!!!ENC: Katarzyna Serwa
!!!END: 2021-05-09
